; generated by PrusaSlicer 2.4.1+linux-x64-GTK3 on 2022-04-24 at 08:26:40 UTC

; 

; external perimeters extrusion width = 0.55mm
; perimeters extrusion width = 0.55mm
; infill extrusion width = 0.65mm
; solid infill extrusion width = 0.55mm
; top infill extrusion width = 0.40mm
; first layer extrusion width = 0.55mm

M107
M190 S60 ; set bed temperature and wait for it to be reached
M104 S223 ; set temperature
;TYPE:Custom
G28 ; home all axes
G1 Z5 F5000 ; lift nozzle
M109 S223 ; set temperature and wait for it to be reached
G21 ; set units to millimeters
G90 ; use absolute coordinates
M82 ; use absolute distances for extrusion
G92 E0
; Filament gcode
M107
;LAYER_CHANGE
;Z:0.3
;HEIGHT:0.3
G1 Z.3 F9000
G1 E-1 F2400
G92 E0
G1 Z.5 F9000
G1 X45.186 Y45.829
G1 Z.3
G1 E1 F2400
;TYPE:Skirt/Brim
;WIDTH:0.55
G1 F1800
G1 X47.31 Y44.64 E1.14744
G1 X49.081 Y44.237 E1.25746
G1 X50.55 Y44.214 E1.34645
G1 X64.698 Y45.385 E2.20627
G1 X65.731 Y45.527 E2.26945
G1 X67.026 Y45.849 E2.35025
G1 X68.155 Y46.271 E2.42329
G1 X135.693 Y76.586 E6.90717
G1 X137.721 Y77.932 E7.05461
G1 X139.573 Y80.645 E7.25356
G1 X140.13 Y83.071 E7.40431
G1 X140.16 Y83.768 E7.44658
G1 X140.13 Y96.929 E8.24373
G1 X139.573 Y99.355 E8.39448
G1 X138.319 Y101.442 E8.54192
G1 X135.693 Y103.414 E8.74087
G1 X68.155 Y133.729 E13.22475
G1 X67.026 Y134.151 E13.2978
G1 X65.731 Y134.473 E13.37858
G1 X64.698 Y134.615 E13.44177
G1 X50.55 Y135.786 E14.30159
G1 X49.175 Y135.773 E14.38488
G1 X46.732 Y135.123 E14.53801
G1 X44.715 Y133.761 E14.68545
G1 X43.489 Y132.254 E14.8031
G1 X42.548 Y130.087 E14.94621
G1 X40.007 Y117.173 E15.74337
G1 X39.837 Y115.491 E15.84578
G1 X39.837 Y64.509 E18.93375
G1 X40.007 Y62.826 E19.03616
G1 X42.385 Y50.592 E19.79107
G1 X42.548 Y49.913 E19.83334
G1 X43.558 Y47.638 E19.98409
G1 X45.146 Y45.873 E20.1279
G1 X45.51 Y46.205 F9000
G1 F1800
G1 X45.551 Y46.16 E20.13159
G1 X47.623 Y45.046 E20.27411
G1 X49.131 Y44.72 E20.36752
G1 X50.51 Y44.698 E20.45109
G1 X64.658 Y45.869 E21.31091
G1 X65.657 Y46.007 E21.37199
G1 X66.867 Y46.308 E21.44753
G1 X67.957 Y46.714 E21.51797
G1 X135.494 Y77.029 E26.00184
G1 X137.447 Y78.341 E26.14437
G1 X139.121 Y80.824 E26.32572
G1 X139.645 Y83.099 E26.46715
G1 X139.674 Y83.77 E26.50783
G1 X139.645 Y96.901 E27.30313
G1 X139.121 Y99.176 E27.44456
G1 X137.898 Y101.187 E27.58708
G1 X135.494 Y102.971 E27.76844
G1 X67.957 Y133.286 E32.25231
G1 X66.867 Y133.693 E32.32275
G1 X65.657 Y133.993 E32.39828
G1 X64.658 Y134.131 E32.45937
G1 X50.51 Y135.302 E33.31919
G1 X49.225 Y135.29 E33.39705
G1 X46.863 Y134.649 E33.54526
G1 X44.936 Y133.299 E33.68778
G1 X43.898 Y131.993 E33.78884
G1 X43.018 Y129.967 E33.92263
G1 X40.484 Y117.083 E34.71794
G1 X40.323 Y115.491 E34.81484
G1 X40.323 Y64.509 E37.90281
G1 X40.484 Y62.917 E37.99971
G1 X42.862 Y50.687 E38.75435
G1 X43.018 Y50.033 E38.79504
G1 X43.967 Y47.9 E38.93647
G1 X45.469 Y46.249 E39.07167
G1 X45.831 Y46.583 F9000
G1 F1800
G1 X45.914 Y46.493 E39.07905
G1 X47.932 Y45.456 E39.21648
G1 X49.18 Y45.203 E39.29362
G1 X50.47 Y45.182 E39.37177
G1 X64.617 Y46.353 E40.23159
G1 X65.582 Y46.486 E40.29057
G1 X66.708 Y46.766 E40.36085
G1 X67.758 Y47.157 E40.42868
G1 X135.295 Y77.472 E44.91255
G1 X137.17 Y78.749 E45.04998
G1 X138.669 Y81.003 E45.21391
G1 X139.16 Y83.128 E45.34602
G1 X139.189 Y83.772 E45.3851
G1 X139.16 Y96.872 E46.17855
G1 X138.669 Y98.997 E46.31065
G1 X137.478 Y100.929 E46.44809
G1 X135.295 Y102.528 E46.61201
G1 X67.758 Y132.843 E51.09589
G1 X66.708 Y133.234 E51.16372
G1 X65.582 Y133.514 E51.23399
G1 X64.617 Y133.647 E51.29297
G1 X50.47 Y134.818 E52.15279
G1 X49.274 Y134.807 E52.22523
G1 X46.998 Y134.175 E52.36834
G1 X45.164 Y132.839 E52.50577
G1 X44.307 Y131.731 E52.59057
G1 X43.416 Y129.561 E52.7327
G1 X40.961 Y116.992 E53.50833
G1 X40.808 Y115.491 E53.59972
G1 X40.808 Y64.509 E56.68769
G1 X40.961 Y63.008 E56.77908
G1 X43.338 Y50.781 E57.53346
G1 X43.489 Y50.154 E57.57256
G1 X44.376 Y48.161 E57.70467
G1 X45.79 Y46.627 E57.83109
G1 E56.83109 F2400
G92 E0
G1 Z.5 F9000
G1 X76.194 Y82.189
G1 Z.3
G1 E1 F2400
;TYPE:Perimeter
G1 F1800
G1 X76.906 Y81.64 E1.05447
G1 X77.717 Y81.128 E1.11257
G1 X78.642 Y80.663 E1.17525
G1 X79.264 Y80.413 E1.21588
G1 X79.698 Y80.266 E1.24359
G1 X80.543 Y80.039 E1.29661
G1 X81.056 Y79.94 E1.32826
G1 X81.654 Y79.856 E1.36482
G1 X82.606 Y79.797 E1.42261
G1 X83.644 Y79.834 E1.48554
G1 X84.531 Y79.951 E1.53973
G1 X85.467 Y80.162 E1.59784
G1 X86.454 Y80.488 E1.66076
G1 X87.271 Y80.848 E1.71487
G1 X88.053 Y81.277 E1.76888
G1 X88.849 Y81.813 E1.82698
G1 X89.65 Y82.474 E1.88991
G1 X90.275 Y83.1 E1.94351
G1 X90.577 Y83.444 E1.97123
G1 X90.985 Y83.964 E2.01127
G1 X91.281 Y84.39 E2.04267
G1 X91.598 Y84.902 E2.07914
G1 X92.007 Y85.689 E2.13284
G1 X92.371 Y86.577 E2.19094
G1 X92.669 Y87.571 E2.25385
G1 X92.845 Y88.451 E2.30818
G1 X92.905 Y88.923 E2.33698
G1 X92.93 Y89.385 E2.36504
G1 X92.924 Y90.646 E2.4414
G1 X92.875 Y91.326 E2.48268
G1 X92.722 Y92.2 E2.53644
G1 X92.613 Y92.645 E2.56419
G1 X92.421 Y93.278 E2.60423
G1 X92.242 Y93.764 E2.63563
G1 X92.004 Y94.317 E2.6721
G1 X91.598 Y95.096 E2.7253
G1 X91.325 Y95.542 E2.75695
G1 X90.986 Y96.034 E2.79317
G1 X90.577 Y96.556 E2.8333
G1 X89.97 Y97.218 E2.88773
G1 X89.488 Y97.67 E2.92777
G1 X89.089 Y98.001 E2.95916
G1 X88.607 Y98.362 E2.99563
G1 X87.864 Y98.835 E3.04899
G1 X87.275 Y99.15 E3.08944
G1 X86.864 Y99.341 E3.1169
G1 X86.252 Y99.587 E3.15684
G1 X85.818 Y99.734 E3.18456
G1 X84.965 Y99.963 E3.23807
G1 X84.02 Y100.126 E3.29617
G1 X82.988 Y100.202 E3.35885
G1 X82.317 Y100.194 E3.39948
G1 X81.86 Y100.164 E3.4272
G1 X80.986 Y100.049 E3.48061
G1 X80.123 Y99.858 E3.53413
G1 X79.622 Y99.71 E3.56578
G1 X79.054 Y99.508 E3.60234
G1 X78.182 Y99.12 E3.66013
G1 X77.276 Y98.607 E3.72315
G1 X76.49 Y98.052 E3.78144
G1 X75.71 Y97.379 E3.84386
G1 X75.384 Y97.053 E3.87176
G1 X74.939 Y96.556 E3.91221
G1 X74.399 Y95.853 E3.96588
G1 X73.924 Y95.108 E4.01939
G1 X73.675 Y94.649 E4.05104
G1 X73.418 Y94.109 E4.08726
G1 X73.171 Y93.494 E4.1274
G1 X73.024 Y93.06 E4.15511
G1 X72.796 Y92.209 E4.20853
G1 X72.642 Y91.338 E4.26204
G1 X72.588 Y90.819 E4.2937
G1 X72.557 Y90.226 E4.32966
G1 X72.557 Y89.773 E4.35707
G1 X72.593 Y89.107 E4.39752
G1 X72.709 Y88.228 E4.45118
G1 X72.9 Y87.365 E4.5047
G1 X73.048 Y86.864 E4.53635
G1 X73.25 Y86.296 E4.57291
G1 X73.638 Y85.424 E4.6307
G1 X74.15 Y84.52 E4.69363
G1 X74.659 Y83.793 E4.74733
G1 X74.987 Y83.387 E4.77898
G1 X75.388 Y82.943 E4.8152
G1 X75.861 Y82.48 E4.85533
G1 X76.148 Y82.228 E4.87846
G1 X76.514 Y82.554 F9000
;TYPE:External perimeter
G1 F1800
G1 X77.184 Y82.039 E4.92966
G1 X77.957 Y81.551 E4.98499
G1 X78.842 Y81.106 E5.04499
G1 X79.433 Y80.869 E5.08358
G1 X79.839 Y80.731 E5.10953
G1 X80.652 Y80.513 E5.16055
G1 X81.136 Y80.419 E5.1904
G1 X81.702 Y80.339 E5.22504
G1 X82.612 Y80.283 E5.28026
G1 X83.604 Y80.319 E5.34036
G1 X84.446 Y80.43 E5.39181
G1 X85.337 Y80.631 E5.44714
G1 X86.279 Y80.942 E5.50723
G1 X87.056 Y81.284 E5.55865
G1 X87.8 Y81.692 E5.61004
G1 X88.558 Y82.203 E5.66537
G1 X89.323 Y82.834 E5.72546
G1 X89.921 Y83.432 E5.7767
G1 X90.203 Y83.755 E5.80265
G1 X90.595 Y84.253 E5.84102
G1 X90.875 Y84.657 E5.87078
G1 X91.175 Y85.143 E5.90539
G1 X91.566 Y85.893 E5.95666
G1 X91.912 Y86.739 E6.012
G1 X92.197 Y87.689 E6.07209
G1 X92.365 Y88.529 E6.12397
G1 X92.421 Y88.967 E6.15069
G1 X92.445 Y89.398 E6.17683
G1 X92.439 Y90.627 E6.25131
G1 X92.392 Y91.266 E6.29011
G1 X92.246 Y92.1 E6.3414
G1 X92.145 Y92.517 E6.36736
G1 X91.961 Y93.123 E6.40573
G1 X91.791 Y93.584 E6.43549
G1 X91.565 Y94.109 E6.4701
G1 X91.175 Y94.857 E6.52119
G1 X90.918 Y95.277 E6.55104
G1 X90.595 Y95.747 E6.58556
G1 X90.203 Y96.245 E6.62396
G1 X89.629 Y96.873 E6.67549
G1 X89.166 Y97.306 E6.71387
G1 X88.789 Y97.62 E6.74362
G1 X88.331 Y97.962 E6.77823
G1 X87.618 Y98.415 E6.82938
G1 X87.057 Y98.715 E6.8679
G1 X86.671 Y98.896 E6.89376
G1 X86.083 Y99.131 E6.93209
G1 X85.677 Y99.269 E6.95805
G1 X84.861 Y99.488 E7.00925
G1 X83.961 Y99.643 E7.06458
G1 X82.973 Y99.716 E7.12459
G1 X82.336 Y99.709 E7.16317
G1 X81.908 Y99.681 E7.18912
G1 X81.07 Y99.571 E7.24029
G1 X80.245 Y99.388 E7.2915
G1 X79.773 Y99.248 E7.32135
G1 X79.234 Y99.056 E7.35598
G1 X78.401 Y98.686 E7.41121
G1 X77.537 Y98.197 E7.47134
G1 X76.79 Y97.669 E7.52674
G1 X76.041 Y97.023 E7.58665
G1 X75.737 Y96.719 E7.61266
G1 X75.313 Y96.246 E7.65119
G1 X74.797 Y95.574 E7.70244
G1 X74.343 Y94.861 E7.75365
G1 X74.108 Y94.428 E7.7835
G1 X73.863 Y93.914 E7.81801
G1 X73.627 Y93.325 E7.85642
G1 X73.489 Y92.919 E7.88237
G1 X73.27 Y92.103 E7.93354
G1 X73.123 Y91.271 E7.98475
G1 X73.072 Y90.781 E8.01459
G1 X73.042 Y90.213 E8.04902
G1 X73.042 Y89.787 E8.07486
G1 X73.077 Y89.152 E8.11338
G1 X73.188 Y88.312 E8.16464
G1 X73.37 Y87.487 E8.21585
G1 X73.51 Y87.015 E8.24569
G1 X73.702 Y86.476 E8.28033
G1 X74.072 Y85.643 E8.33555
G1 X74.561 Y84.779 E8.39565
G1 X75.047 Y84.086 E8.44692
G1 X75.357 Y83.703 E8.47677
G1 X75.738 Y83.28 E8.51128
G1 X76.192 Y82.836 E8.54969
G1 X76.469 Y82.593 E8.57201
G1 X76.449 Y82.159 F9000
G1 E7.57201 F2400
G92 E0
G1 Z.5 F9000
G1 X48.138 Y64.059
G1 Z.3
G1 E1 F2400
;TYPE:Perimeter
G1 F1800
G1 X49 Y59.652 E1.27199
G1 X56.756 Y61.152 E1.75049
G1 X57.823 Y61.339 E1.81608
G1 X58.022 Y62.057 E1.86121
G1 X58.187 Y62.55 E1.89267
G1 X58.389 Y63.056 E1.92566
G1 X58.632 Y63.54 E1.95851
G1 X58.914 Y63.99 E1.99065
G1 X59.234 Y64.401 E2.0222
G1 X59.589 Y64.774 E2.05341
G1 X59.979 Y65.109 E2.08451
G1 X60.398 Y65.403 E2.11556
G1 X60.845 Y65.655 E2.14661
G1 X61.314 Y65.863 E2.17768
G1 X61.802 Y66.023 E2.20876
G1 X62.302 Y66.134 E2.2398
G1 X62.811 Y66.196 E2.27085
G1 X63.323 Y66.208 E2.30192
G1 X63.835 Y66.169 E2.33299
G1 X64.34 Y66.081 E2.36403
G1 X64.834 Y65.943 E2.39508
G1 X65.312 Y65.758 E2.42616
G1 X65.77 Y65.527 E2.45723
G1 X66.203 Y65.251 E2.48828
G1 X66.606 Y64.936 E2.51933
G1 X66.977 Y64.582 E2.55039
G1 X67.311 Y64.194 E2.58134
G1 X67.603 Y63.782 E2.61197
G1 X67.853 Y63.35 E2.64218
G1 X68.06 Y62.905 E2.67192
G1 X68.221 Y62.45 E2.70117
G1 X68.336 Y61.985 E2.73019
G1 X68.404 Y61.51 E2.75921
G1 X68.425 Y61.028 E2.78847
G1 X68.4 Y60.537 E2.8182
G1 X68.33 Y60.044 E2.84842
G1 X68.213 Y59.552 E2.87905
G1 X68.049 Y59.068 E2.90999
G1 X67.838 Y58.6 E2.94105
G1 X67.582 Y58.156 E2.9721
G1 X67.284 Y57.739 E3.00315
G1 X66.946 Y57.353 E3.03423
G1 X66.572 Y57.002 E3.0653
G1 X66.165 Y56.69 E3.09635
G1 X65.73 Y56.418 E3.12739
G1 X65.271 Y56.191 E3.15847
G1 X64.791 Y56.01 E3.18954
G1 X64.296 Y55.877 E3.22058
G1 X63.79 Y55.793 E3.25163
G1 X63.278 Y55.758 E3.2827
G1 X62.765 Y55.775 E3.31378
G1 X62.257 Y55.841 E3.34483
G1 X61.758 Y55.957 E3.37588
G1 X61.271 Y56.121 E3.40697
G1 X60.802 Y56.334 E3.43818
G1 X60.351 Y56.596 E3.46974
G1 X59.921 Y56.907 E3.50188
G1 X59.514 Y57.265 E3.53473
G1 X59.137 Y57.658 E3.56772
G1 X58.8 Y58.054 E3.59918
G1 X58.348 Y58.642 E3.64415
G1 X57.598 Y58.478 E3.69063
G1 X49.529 Y56.905 E4.18858
G1 X50.386 Y52.5 E4.46035
G1 X56.801 Y53.737 E4.8561
G1 X57.629 Y53.87 E4.90689
G1 X58.43 Y53.949 E4.95565
G1 X59.277 Y53.963 E5.00696
G1 X60.216 Y53.914 E5.06388
G1 X63.565 Y53.578 E5.26773
G1 X64.024 Y53.577 E5.29553
G1 X64.402 Y53.636 E5.31873
G1 X64.802 Y53.775 E5.3444
G1 X65.294 Y54.027 E5.37783
G1 X65.847 Y54.386 E5.41779
G1 X66.416 Y54.833 E5.46158
G1 X66.962 Y55.347 E5.507
G1 X68.077 Y56.613 E5.60919
G1 X68.779 Y57.34 E5.67045
G1 X69.671 Y58.092 E5.7411
G1 X70.778 Y58.828 E5.82163
G1 X72.044 Y59.544 E5.90973
G1 X73.414 Y60.247 E6.00294
G1 X79.018 Y62.999 E6.38111
G1 X81.613 Y64.329 E6.55772
G1 X84.041 Y65.626 E6.72448
G1 X97.056 Y72.692 E7.62144
G1 X99.156 Y73.798 E7.76521
G1 X100.062 Y74.253 E7.82661
G1 X101.713 Y75.037 E7.93734
G1 X112.438 Y79.955 E8.65195
G1 X116.334 Y81.772 E8.91232
G1 X117.041 Y82.072 E8.95885
G1 X117.655 Y82.301 E8.99856
G1 X121.092 Y83.356 E9.21634
G1 X122.026 Y83.628 E9.27524
G1 X122.935 Y83.854 E9.33195
G1 X123.769 Y84.002 E9.38327
G1 X124.57 Y84.077 E9.43203
G1 X125.409 Y84.104 E9.48283
G1 X131.939 Y84.11 E9.87836
G1 X131.943 Y88.605 E10.15062
G1 X124.042 Y88.608 E10.62916
G1 X122.966 Y88.627 E10.69431
G1 X122.627 Y87.957 E10.73979
G1 X122.369 Y87.505 E10.77129
G1 X122.073 Y87.048 E10.80429
G1 X121.741 Y86.619 E10.83713
G1 X121.378 Y86.233 E10.86926
G1 X120.985 Y85.89 E10.90081
G1 X120.565 Y85.592 E10.93202
G1 X120.119 Y85.338 E10.96311
G1 X119.651 Y85.129 E10.99417
G1 X119.165 Y84.966 E11.02523
G1 X118.664 Y84.852 E11.05631
G1 X118.155 Y84.788 E11.08739
G1 X117.643 Y84.774 E11.11844
G1 X117.131 Y84.81 E11.14948
G1 X116.626 Y84.897 E11.18056
G1 X116.131 Y85.032 E11.21163
G1 X115.652 Y85.215 E11.24268
G1 X115.193 Y85.445 E11.27373
G1 X114.759 Y85.718 E11.30481
G1 X114.354 Y86.032 E11.3359
G1 X113.981 Y86.385 E11.36695
G1 X113.645 Y86.772 E11.39801
G1 X113.349 Y87.19 E11.42903
G1 X113.098 Y87.627 E11.45954
G1 X112.894 Y88.062 E11.48868
G1 X112.729 Y88.492 E11.51659
G1 X112.542 Y89.193 E11.56053
G1 X112.498 Y89.521 E11.58057
G1 X112.483 Y90 E11.60958
G1 X112.498 Y90.479 E11.63858
G1 X112.542 Y90.807 E11.65862
G1 X112.729 Y91.508 E11.70256
G1 X112.894 Y91.938 E11.73047
G1 X113.098 Y92.373 E11.75961
G1 X113.349 Y92.81 E11.79012
G1 X113.645 Y93.228 E11.82114
G1 X113.981 Y93.615 E11.8522
G1 X114.354 Y93.968 E11.88326
G1 X114.759 Y94.282 E11.91434
G1 X115.193 Y94.555 E11.94542
G1 X115.652 Y94.785 E11.97647
G1 X116.131 Y94.968 E12.00752
G1 X116.626 Y95.103 E12.0386
G1 X117.131 Y95.19 E12.06967
G1 X117.643 Y95.226 E12.10072
G1 X118.155 Y95.212 E12.13176
G1 X118.664 Y95.148 E12.16284
G1 X119.165 Y95.034 E12.19392
G1 X119.651 Y94.871 E12.22498
G1 X120.119 Y94.662 E12.25604
G1 X120.565 Y94.408 E12.28713
G1 X120.985 Y94.11 E12.31834
G1 X121.378 Y93.767 E12.34989
G1 X121.741 Y93.381 E12.38202
G1 X122.073 Y92.952 E12.41486
G1 X122.369 Y92.495 E12.44787
G1 X122.627 Y92.043 E12.47936
G1 X122.966 Y91.373 E12.52484
G1 X124.042 Y91.392 E12.58999
G1 X131.943 Y91.395 E13.06853
G1 X131.939 Y95.89 E13.34079
G1 X125.409 Y95.896 E13.73632
G1 X124.57 Y95.923 E13.78712
G1 X123.769 Y95.998 E13.83589
G1 X122.935 Y96.146 E13.8872
G1 X122.026 Y96.372 E13.94391
G1 X121.093 Y96.644 E14.00281
G1 X117.655 Y97.699 E14.22059
G1 X117.041 Y97.928 E14.2603
G1 X116.334 Y98.228 E14.30683
G1 X112.437 Y100.045 E14.56721
G1 X101.713 Y104.963 E15.28181
G1 X100.062 Y105.747 E15.39254
G1 X99.156 Y106.202 E15.45394
G1 X97.056 Y107.308 E15.59772
G1 X84.041 Y114.373 E16.49466
G1 X81.613 Y115.671 E16.66143
G1 X79.018 Y117.001 E16.83805
G1 X73.414 Y119.753 E17.21622
G1 X72.044 Y120.456 E17.30942
G1 X70.778 Y121.172 E17.39752
G1 X69.671 Y121.908 E17.47805
G1 X68.779 Y122.66 E17.5487
G1 X68.077 Y123.387 E17.60996
G1 X66.962 Y124.653 E17.71215
G1 X66.416 Y125.167 E17.75757
G1 X65.847 Y125.614 E17.80136
G1 X65.294 Y125.973 E17.84132
G1 X64.803 Y126.225 E17.87476
G1 X64.402 Y126.364 E17.90042
G1 X64.024 Y126.423 E17.92362
G1 X63.565 Y126.422 E17.95143
G1 X60.216 Y126.086 E18.15528
G1 X59.277 Y126.037 E18.21219
G1 X58.43 Y126.051 E18.2635
G1 X57.629 Y126.13 E18.31226
G1 X56.801 Y126.264 E18.36307
G1 X50.387 Y127.505 E18.7588
G1 X49.529 Y123.095 E19.03089
G1 X57.598 Y121.522 E19.52884
G1 X58.348 Y121.358 E19.57532
G1 X58.8 Y121.946 E19.62028
G1 X59.137 Y122.342 E19.65175
G1 X59.514 Y122.735 E19.68474
G1 X59.921 Y123.093 E19.71759
G1 X60.351 Y123.404 E19.74973
G1 X60.802 Y123.666 E19.78128
G1 X61.271 Y123.879 E19.8125
G1 X61.758 Y124.043 E19.84359
G1 X62.257 Y124.159 E19.87464
G1 X62.765 Y124.225 E19.90569
G1 X63.278 Y124.242 E19.93676
G1 X63.79 Y124.207 E19.96784
G1 X64.296 Y124.123 E19.99888
G1 X64.791 Y123.99 E20.02993
G1 X65.271 Y123.809 E20.061
G1 X65.73 Y123.582 E20.09207
G1 X66.165 Y123.31 E20.12311
G1 X66.572 Y122.998 E20.15416
G1 X66.946 Y122.647 E20.18524
G1 X67.284 Y122.261 E20.21631
G1 X67.582 Y121.844 E20.24736
G1 X67.838 Y121.4 E20.27842
G1 X68.049 Y120.932 E20.30947
G1 X68.213 Y120.448 E20.34042
G1 X68.33 Y119.956 E20.37105
G1 X68.4 Y119.463 E20.40126
G1 X68.425 Y118.972 E20.431
G1 X68.404 Y118.49 E20.46025
G1 X68.336 Y118.015 E20.48927
G1 X68.221 Y117.55 E20.51829
G1 X68.06 Y117.095 E20.54755
G1 X67.853 Y116.65 E20.57728
G1 X67.603 Y116.218 E20.6075
G1 X67.311 Y115.806 E20.63813
G1 X66.977 Y115.418 E20.66907
G1 X66.606 Y115.064 E20.70013
G1 X66.203 Y114.749 E20.73118
G1 X65.77 Y114.473 E20.76223
