; generated by Slic3r 1.3.0 on 2020-11-13 at 18:47:25

; external perimeters extrusion width = 0.30mm (2.06mm^3/s)
; perimeters extrusion width = 0.30mm (2.57mm^3/s)
; infill extrusion width = 0.30mm (2.57mm^3/s)
; solid infill extrusion width = 0.30mm (2.57mm^3/s)
; top infill extrusion width = 0.26mm (2.17mm^3/s)

M107
M190 S60 ; set bed temperature and wait for it to be reached
M104 S190 ; set temperature
G28 ; home all axes
G1 Z5 F5000 ; lift nozzle

; Filament gcode

M109 S190 ; set temperature and wait for it to be reached
G21 ; set units to millimeters
G90 ; use absolute coordinates
M82 ; use absolute distances for extrusion
G92 E0
G1 E-1.00000 F2400.00000
G92 E0
G1 Z0.250 F9000.000
G1 X38.424 Y76.011 F9000.000
G1 Z0.200 F9000.000
G1 E1.00000 F2400.00000
G1 F1440
G1 X38.982 Y75.769 E1.01327
G1 X39.404 Y75.628 E1.02295
G1 X40.070 Y75.474 E1.03787
G1 X40.699 Y75.393 E1.05168
G1 X76.633 Y73.191 E1.83666
G1 X76.993 Y73.186 E1.84452
G1 X126.779 Y76.120 E2.93191
G1 X127.325 Y76.178 E2.94389
G1 X128.037 Y76.310 E2.95967
G1 X128.371 Y76.395 E2.96719
G1 X129.017 Y76.606 E2.98200
G1 X129.645 Y76.874 E2.99690
G1 X130.203 Y77.166 E3.01063
G1 X130.578 Y77.395 E3.02021
G1 X131.318 Y77.924 E3.04005
G1 X132.055 Y78.571 E3.06142
G1 X132.543 Y79.083 E3.07685
G1 X132.832 Y79.423 E3.08657
G1 X133.349 Y80.116 E3.10544
G1 X133.832 Y80.900 E3.12551
G1 X134.162 Y81.541 E3.14122
G1 X134.362 Y81.987 E3.15189
G1 X134.687 Y82.850 E3.17199
G1 X134.941 Y83.727 E3.19189
G1 X135.094 Y84.444 E3.20788
G1 X135.171 Y84.933 E3.21867
G1 X135.248 Y85.674 E3.23493
G1 X135.278 Y86.651 E3.25624
G1 X135.264 Y87.119 E3.26645
G1 X135.208 Y87.808 E3.28153
G1 X135.093 Y88.586 E3.29866
G1 X134.872 Y89.547 E3.32016
G1 X134.664 Y90.211 E3.33534
G1 X134.292 Y91.148 E3.35731
G1 X133.957 Y91.825 E3.37379
G1 X133.560 Y92.498 E3.39083
G1 X133.112 Y93.141 E3.40791
G1 X132.481 Y93.898 E3.42940
G1 X131.962 Y94.418 E3.44543
G1 X131.385 Y94.909 E3.46193
G1 X130.824 Y95.314 E3.47703
G1 X130.483 Y95.530 E3.48583
G1 X129.972 Y95.815 E3.49860
G1 X129.432 Y96.064 E3.51155
G1 X129.115 Y96.186 E3.51896
G1 X128.413 Y96.403 E3.53498
G1 X127.750 Y96.539 E3.54974
G1 X127.074 Y96.615 E3.56458
G1 X126.572 Y96.634 E3.57552
G1 X72.839 Y96.779 E4.74711
G1 X41.604 Y95.900 E5.42842
G1 X40.438 Y95.680 E5.45429
G1 X39.716 Y95.397 E5.47121
G1 X39.108 Y95.095 E5.48599
G1 X38.572 Y94.738 E5.50005
G1 X38.028 Y94.239 E5.51614
G1 X37.525 Y93.585 E5.53412
G1 X37.273 Y93.142 E5.54525
G1 X36.822 Y92.155 E5.56891
G1 X36.443 Y91.179 E5.59172
G1 X36.012 Y89.896 E5.62123
G1 X35.676 Y88.744 E5.64740
G1 X35.410 Y87.719 E5.67049
G1 X35.199 Y86.793 E5.69120
G1 X34.921 Y85.335 E5.72355
G1 X34.834 Y84.722 E5.73706
G1 X34.756 Y83.925 E5.75451
G1 X34.722 Y83.121 E5.77207
G1 X34.737 Y82.431 E5.78712
G1 X34.797 Y81.740 E5.80225
G1 X34.899 Y81.053 E5.81739
G1 X35.072 Y80.293 E5.83439
G1 X35.249 Y79.741 E5.84703
G1 X35.538 Y79.043 E5.86350
G1 X35.871 Y78.413 E5.87902
G1 X36.138 Y78.001 E5.88974
G1 X36.474 Y77.567 E5.90169
G1 X36.942 Y77.069 E5.91660
G1 X37.459 Y76.624 E5.93148
G1 X37.967 Y76.268 E5.94500
G1 X38.371 Y76.038 E5.95513
G1 X38.542 Y76.239 F9000.000
G1 F1440
G1 X39.078 Y76.007 E5.96786
G1 X39.470 Y75.876 E5.97688
G1 X40.109 Y75.728 E5.99117
G1 X40.714 Y75.650 E6.00449
G1 X76.649 Y73.447 E6.78946
G1 X76.984 Y73.443 E6.79678
G1 X126.763 Y76.377 E7.88404
G1 X127.295 Y76.433 E7.89570
G1 X127.985 Y76.562 E7.91099
G1 X128.296 Y76.641 E7.91799
G1 X128.921 Y76.845 E7.93232
G1 X129.529 Y77.103 E7.94674
G1 X130.071 Y77.387 E7.96007
G1 X130.436 Y77.609 E7.96939
G1 X131.163 Y78.129 E7.98889
G1 X131.871 Y78.751 E8.00943
G1 X132.347 Y79.249 E8.02445
G1 X132.636 Y79.589 E8.03418
G1 X133.139 Y80.263 E8.05251
G1 X133.605 Y81.020 E8.07190
G1 X133.928 Y81.646 E8.08724
G1 X134.128 Y82.092 E8.09791
G1 X134.442 Y82.928 E8.11738
G1 X134.690 Y83.783 E8.13679
G1 X134.840 Y84.484 E8.15242
G1 X134.917 Y84.973 E8.16321
G1 X134.992 Y85.698 E8.17911
G1 X135.021 Y86.644 E8.19973
G1 X135.007 Y87.111 E8.20994
G1 X134.952 Y87.785 E8.22468
G1 X134.839 Y88.545 E8.24143
G1 X134.625 Y89.472 E8.26217
G1 X134.423 Y90.123 E8.27703
G1 X134.056 Y91.046 E8.29870
G1 X133.728 Y91.709 E8.31481
G1 X133.341 Y92.365 E8.33143
G1 X132.903 Y92.991 E8.34807
G1 X132.296 Y93.719 E8.36876
G1 X131.792 Y94.225 E8.38433
G1 X131.232 Y94.703 E8.40038
G1 X130.686 Y95.097 E8.41506
G1 X130.345 Y95.313 E8.42385
G1 X129.850 Y95.589 E8.43620
G1 X129.329 Y95.829 E8.44872
G1 X129.033 Y95.943 E8.45563
G1 X128.355 Y96.152 E8.47111
G1 X127.715 Y96.284 E8.48536
G1 X127.062 Y96.358 E8.49968
G1 X126.571 Y96.377 E8.51039
G1 X72.838 Y96.522 E9.68198
G1 X41.611 Y95.643 E10.36312
G1 X40.525 Y95.438 E10.38723
G1 X39.824 Y95.164 E10.40363
G1 X39.239 Y94.873 E10.41788
G1 X38.732 Y94.536 E10.43116
G1 X38.220 Y94.067 E10.44631
G1 X37.744 Y93.451 E10.46327
G1 X37.504 Y93.028 E10.47387
G1 X37.060 Y92.058 E10.49712
G1 X36.686 Y91.094 E10.51967
G1 X36.257 Y89.818 E10.54904
G1 X35.923 Y88.673 E10.57505
G1 X35.661 Y87.661 E10.59783
G1 X35.451 Y86.742 E10.61838
G1 X35.174 Y85.292 E10.65058
G1 X35.070 Y84.532 E10.66730
G1 X34.998 Y83.693 E10.68566
G1 X34.979 Y83.112 E10.69833
G1 X34.994 Y82.439 E10.71300
G1 X35.052 Y81.765 E10.72777
G1 X35.153 Y81.093 E10.74257
G1 X35.319 Y80.366 E10.75883
G1 X35.489 Y79.833 E10.77103
G1 X35.768 Y79.158 E10.78696
G1 X36.090 Y78.548 E10.80199
G1 X36.346 Y78.152 E10.81228
G1 X36.667 Y77.737 E10.82372
G1 X37.115 Y77.259 E10.83801
G1 X37.612 Y76.831 E10.85231
G1 X38.101 Y76.487 E10.86533
G1 X38.489 Y76.267 E10.87507
G1 X38.660 Y76.468 F9000.000
G1 F1440
G1 X39.173 Y76.246 E10.88726
G1 X39.537 Y76.125 E10.89562
G1 X40.147 Y75.982 E10.90928
G1 X40.730 Y75.907 E10.92209
G1 X76.664 Y73.704 E11.70707
G1 X76.976 Y73.700 E11.71386
G1 X126.748 Y76.633 E12.80097
G1 X127.266 Y76.688 E12.81231
G1 X127.933 Y76.813 E12.82711
G1 X128.221 Y76.887 E12.83360
G1 X128.825 Y77.083 E12.84745
G1 X129.413 Y77.333 E12.86138
G1 X129.940 Y77.608 E12.87433
G1 X130.294 Y77.823 E12.88338
G1 X131.009 Y78.335 E12.90253
G1 X131.688 Y78.931 E12.92224
G1 X132.152 Y79.415 E12.93686
G1 X132.440 Y79.755 E12.94658
G1 X132.928 Y80.411 E12.96440
G1 X133.378 Y81.141 E12.98310
G1 X133.693 Y81.751 E12.99806
G1 X133.893 Y82.197 E13.00873
G1 X134.197 Y83.006 E13.02758
G1 X134.439 Y83.839 E13.04649
G1 X134.586 Y84.524 E13.06176
G1 X134.663 Y85.013 E13.07256
G1 X134.736 Y85.722 E13.08810
G1 X134.764 Y86.636 E13.10803
G1 X134.750 Y87.104 E13.11823
G1 X134.696 Y87.762 E13.13263
G1 X134.585 Y88.505 E13.14901
G1 X134.379 Y89.398 E13.16900
G1 X134.181 Y90.035 E13.18353
G1 X133.820 Y90.945 E13.20489
G1 X133.499 Y91.592 E13.22064
G1 X133.121 Y92.231 E13.23683
G1 X132.695 Y92.840 E13.25304
G1 X132.111 Y93.541 E13.27292
G1 X131.622 Y94.032 E13.28804
G1 X131.078 Y94.497 E13.30364
G1 X130.549 Y94.880 E13.31788
G1 X130.208 Y95.096 E13.32668
G1 X129.729 Y95.362 E13.33862
G1 X128.952 Y95.699 E13.35709
G1 X128.297 Y95.902 E13.37204
G1 X127.681 Y96.030 E13.38577
G1 X127.051 Y96.102 E13.39959
G1 X126.571 Y96.120 E13.41007
G1 X72.838 Y96.265 E14.58165
G1 X41.619 Y95.386 E15.26262
G1 X40.611 Y95.196 E15.28497
G1 X39.933 Y94.930 E15.30086
G1 X39.266 Y94.592 E15.31715
G1 X38.804 Y94.265 E15.32949
G1 X38.411 Y93.895 E15.34128
G1 X37.963 Y93.317 E15.35722
G1 X37.883 Y93.185 E15.36058
G1 X37.574 Y92.587 E15.37526
G1 X37.262 Y91.870 E15.39231
G1 X36.929 Y91.009 E15.41243
G1 X36.502 Y89.739 E15.44166
G1 X36.169 Y88.601 E15.46750
G1 X35.911 Y87.604 E15.48996
G1 X35.702 Y86.691 E15.51037
G1 X35.427 Y85.248 E15.54240
G1 X35.326 Y84.508 E15.55869
G1 X35.255 Y83.684 E15.57671
G1 X35.236 Y83.104 E15.58938
G1 X35.251 Y82.448 E15.60368
G1 X35.308 Y81.790 E15.61809
G1 X35.407 Y81.134 E15.63255
G1 X35.565 Y80.439 E15.64808
G1 X35.729 Y79.926 E15.65983
G1 X35.998 Y79.274 E15.67522
G1 X36.308 Y78.683 E15.68976
G1 X36.554 Y78.303 E15.69963
G1 X36.860 Y77.907 E15.71054
G1 X37.289 Y77.448 E15.72424
G1 X37.764 Y77.038 E15.73793
G1 X38.234 Y76.707 E15.75047
G1 X38.607 Y76.495 E15.75980
G1 E14.75980 F2400.00000
G92 E0
G1 Z0.450 F9000.000
G1 X79.021 Y90.123 F9000.000
G1 Z0.200 F9000.000
G1 E1.00000 F2400.00000
G1 F1200
G1 X79.632 Y89.981 E1.01367
G1 X79.908 Y89.964 E1.01971
G1 X80.188 Y89.979 E1.02583
G1 X80.351 Y90.012 E1.02945
G1 X80.737 Y90.142 E1.03833
G1 X81.019 Y90.293 E1.04531
G1 X81.220 Y90.442 E1.05077
G1 X81.445 Y90.669 E1.05773
G1 X81.563 Y90.842 E1.06229
G1 X81.640 Y91.036 E1.06684
G1 X81.670 Y91.262 E1.07183
G1 X81.620 Y91.606 E1.07939
G1 X81.466 Y91.867 E1.08601
G1 X81.258 Y92.002 E1.09141
G1 X81.045 Y92.051 E1.09618
G1 X80.682 Y92.041 E1.10411
G1 X80.332 Y91.980 E1.11185
G1 X80.058 Y91.893 E1.11812
G1 X79.730 Y91.721 E1.12618
G1 X79.547 Y91.579 E1.13124
G1 X79.385 Y91.410 E1.13635
G1 X79.241 Y91.209 E1.14174
G1 X79.130 Y90.973 E1.14741
G1 X79.064 Y90.712 E1.15329
G1 X79.025 Y90.183 E1.16485
G1 X79.021 Y90.123 F9000.000
G1 X77.768 Y90.207 F9000.000
G1 F1200
G1 X77.265 Y89.704 E1.18037
G1 X76.042 Y89.921 E1.20744
G1 X75.354 Y90.087 E1.22287
G1 X74.691 Y90.289 E1.23798
G1 X74.299 Y90.440 E1.24715
G1 X73.910 Y90.626 E1.25655
G1 X73.521 Y90.851 E1.26635
G1 X73.437 Y90.756 E1.26911
G1 X73.669 Y90.498 E1.27666
G1 X74.126 Y90.121 E1.28958
G1 X74.476 Y89.884 E1.29880
G1 X74.905 Y89.634 E1.30963
G1 X75.437 Y89.363 E1.32264
G1 X76.789 Y88.763 E1.35490
G1 X76.355 Y87.299 E1.38819
G1 X76.087 Y86.238 E1.41205
G1 X75.886 Y85.177 E1.43559
G1 X75.764 Y84.286 E1.45520
G1 X75.690 Y83.512 E1.47216
G1 X75.633 Y82.446 E1.49543
G1 X75.619 Y80.614 E1.53537
G1 X75.638 Y80.134 E1.54586
G1 X75.678 Y79.768 E1.55388
G1 X75.844 Y78.914 E1.57284
G1 X75.979 Y78.511 E1.58211
G1 X76.057 Y78.361 E1.58580
G1 X76.323 Y77.998 E1.59562
G1 X76.588 Y77.753 E1.60349
G1 X76.772 Y77.642 E1.60817
G1 X76.896 Y77.624 E1.61090
G1 X76.882 Y78.037 E1.61992
G1 X76.755 Y79.561 E1.65326
G1 X76.719 Y80.276 E1.66886
G1 X76.708 Y82.698 E1.72167
G1 X76.723 Y83.277 E1.73432
G1 X76.771 Y83.864 E1.74716
G1 X76.850 Y84.446 E1.75995
G1 X77.030 Y85.380 E1.78069
G1 X77.210 Y86.121 E1.79731
G1 X77.446 Y86.960 E1.81633
G1 X77.911 Y88.450 E1.85036
G1 X79.029 Y88.462 E1.87475
G1 X79.368 Y88.487 E1.88216
G1 X79.830 Y88.538 E1.89228
G1 X80.231 Y88.606 E1.90117
G1 X80.613 Y88.702 E1.90976
G1 X80.983 Y88.827 E1.91826
G1 X81.230 Y88.936 E1.92414
G1 X81.620 Y89.182 E1.93421
G1 X81.843 Y89.394 E1.94091
G1 X81.934 Y89.545 E1.94476
G1 X81.981 Y89.731 E1.94893
G1 X81.988 Y90.142 E1.95791
G1 X81.954 Y90.453 E1.96473
G1 X81.558 Y90.052 E1.97701
G1 X81.295 Y89.857 E1.98416
G1 X80.941 Y89.669 E1.99289
G1 X80.484 Y89.514 E2.00342
G1 X80.253 Y89.467 E2.00857
G1 X79.905 Y89.449 E2.01616
G1 X79.556 Y89.471 E2.02378
G1 X78.475 Y89.722 E2.04798
G1 X78.568 Y90.847 E2.07259
G1 X78.466 Y90.905 E2.07515
G1 X77.811 Y90.250 E2.09536
G1 X77.629 Y90.432 F9000.000
G1 F1200
G1 X77.178 Y89.981 E2.10927
G1 X76.095 Y90.173 E2.13325
G1 X75.421 Y90.335 E2.14834
G1 X74.775 Y90.532 E2.16308
G1 X74.401 Y90.676 E2.17182
G1 X74.030 Y90.854 E2.18079
G1 X73.623 Y91.089 E2.19103
G1 X73.206 Y91.375 E2.20207
G1 X72.813 Y91.688 E2.21301
G1 X72.827 Y91.488 E2.21740
G1 X72.866 Y91.297 E2.22164
G1 X73.018 Y90.918 E2.23054
G1 X73.137 Y90.723 E2.23552
G1 X73.299 Y90.515 E2.24127
G1 X73.493 Y90.310 E2.24743
G1 X73.972 Y89.915 E2.26096
G1 X74.340 Y89.667 E2.27063
G1 X74.782 Y89.408 E2.28181
G1 X75.327 Y89.131 E2.29513
G1 X76.479 Y88.619 E2.32261
G1 X76.107 Y87.367 E2.35110
G1 X75.836 Y86.294 E2.37524
G1 X75.633 Y85.219 E2.39909
G1 X75.509 Y84.316 E2.41896
G1 X75.434 Y83.531 E2.43615
G1 X75.376 Y82.454 E2.45967
G1 X75.362 Y80.610 E2.49987
G1 X75.381 Y80.115 E2.51068
G1 X75.424 Y79.729 E2.51913
G1 X75.594 Y78.854 E2.53857
G1 X75.745 Y78.405 E2.54890
G1 X75.838 Y78.225 E2.55332
G1 X76.130 Y77.826 E2.56411
G1 X76.433 Y77.546 E2.57310
G1 X76.655 Y77.412 E2.57875
G1 X76.902 Y77.363 E2.58424
G1 X77.161 Y77.394 E2.58992
G1 X77.139 Y78.052 E2.60428
G1 X77.012 Y79.578 E2.63767
G1 X76.976 Y80.283 E2.65305
G1 X76.965 Y82.695 E2.70564
G1 X76.980 Y83.264 E2.71805
G1 X77.027 Y83.837 E2.73059
G1 X77.104 Y84.404 E2.74307
G1 X77.281 Y85.325 E2.76353
G1 X77.459 Y86.055 E2.77991
G1 X77.693 Y86.887 E2.79875
G1 X78.100 Y88.195 E2.82862
G1 X79.040 Y88.205 E2.84911
G1 X79.865 Y88.283 E2.86719
G1 X80.284 Y88.354 E2.87645
G1 X80.686 Y88.455 E2.88549
G1 X81.076 Y88.587 E2.89446
G1 X81.345 Y88.706 E2.90087
G1 X81.588 Y88.843 E2.90695
G1 X81.784 Y88.983 E2.91222
G1 X82.045 Y89.232 E2.92008
G1 X82.168 Y89.436 E2.92526
G1 X82.238 Y89.704 E2.93130
G1 X82.246 Y90.154 E2.94112
G1 X82.183 Y90.724 E2.95362
G1 X82.126 Y90.960 E2.95893
G1 X82.038 Y91.194 E2.96436
G1 X81.919 Y91.180 E2.96699
G1 X81.891 Y90.970 E2.97162
G1 X81.791 Y90.720 E2.97748
G1 X81.644 Y90.505 E2.98317
G1 X81.389 Y90.247 E2.99106
G1 X81.157 Y90.075 E2.99737
G1 X80.839 Y89.905 E3.00522
G1 X80.417 Y89.763 E3.01493
G1 X80.220 Y89.723 E3.01931
G1 X79.906 Y89.706 E3.02617
G1 X79.594 Y89.726 E3.03299
G1 X78.748 Y89.923 E3.05193
G1 X78.810 Y90.753 E3.07008
G1 X78.887 Y91.060 E3.07699
G1 X79.019 Y91.339 E3.08372
G1 X79.251 Y91.641 E3.09202
G1 X79.166 Y91.746 E3.09496
G1 X78.923 Y91.599 E3.10116
G1 X78.671 Y91.416 E3.10794
G1 X78.273 Y91.075 E3.11938
G1 X77.671 Y90.474 E3.13792
G1 X77.490 Y90.656 F9000.000
G1 F960
G1 X77.091 Y90.257 E3.15022
G1 X76.147 Y90.425 E3.17111
G1 X75.489 Y90.583 E3.18587
G1 X74.859 Y90.775 E3.20023
G1 X74.503 Y90.913 E3.20855
G1 X74.150 Y91.082 E3.21709
G1 X73.760 Y91.307 E3.22690
G1 X73.359 Y91.582 E3.23751
G1 X72.955 Y91.904 E3.24877
G1 X72.817 Y92.066 E3.25341
G1 X72.733 Y92.267 E3.25816
G1 X72.621 Y92.258 E3.26062
G1 X72.582 Y92.090 E3.26437
G1 X72.553 Y91.727 E3.27232
G1 X72.572 Y91.453 E3.27831
G1 X72.618 Y91.230 E3.28326
G1 X72.690 Y91.013 E3.28825
G1 X72.791 Y90.796 E3.29347
G1 X72.925 Y90.577 E3.29907
G1 X73.103 Y90.347 E3.30541
G1 X73.317 Y90.121 E3.31219
G1 X73.818 Y89.709 E3.32634
G1 X74.203 Y89.449 E3.33646
G1 X74.659 Y89.182 E3.34798
G1 X75.216 Y88.899 E3.36162
G1 X76.168 Y88.476 E3.38432
G1 X75.859 Y87.435 E3.40800
G1 X75.585 Y86.349 E3.43242
G1 X75.379 Y85.260 E3.45659
G1 X75.253 Y84.345 E3.47672
G1 X75.178 Y83.550 E3.49414
G1 X75.119 Y82.462 E3.51790
G1 X75.105 Y80.606 E3.55836
G1 X75.125 Y80.096 E3.56950
G1 X75.169 Y79.691 E3.57838
G1 X75.344 Y78.794 E3.59829
G1 X75.418 Y78.534 E3.60421
G1 X75.510 Y78.299 E3.60970
G1 X75.618 Y78.090 E3.61484
G1 X75.937 Y77.654 E3.62662
G1 X76.278 Y77.340 E3.63671
G1 X76.541 Y77.181 E3.64342
G1 X76.644 Y77.141 E3.64582
G1 X76.888 Y77.106 E3.65120
G1 X77.059 Y77.112 E3.65495
G1 X77.264 Y77.152 E3.65949
G1 X77.422 Y77.259 E3.66366
G1 X77.396 Y78.067 E3.68128
G1 X77.268 Y79.595 E3.71472
G1 X77.233 Y80.290 E3.72988
G1 X77.222 Y82.692 E3.78225
G1 X77.237 Y83.250 E3.79442
G1 X77.282 Y83.809 E3.80665
G1 X77.358 Y84.362 E3.81883
G1 X77.533 Y85.271 E3.83900
G1 X77.708 Y85.990 E3.85515
G1 X77.939 Y86.814 E3.87381
G1 X78.290 Y87.940 E3.89952
G1 X79.051 Y87.948 E3.91610
G1 X79.901 Y88.028 E3.93473
G1 X80.337 Y88.102 E3.94438
G1 X80.759 Y88.209 E3.95385
G1 X81.169 Y88.347 E3.96329
G1 X81.461 Y88.475 E3.97024
G1 X81.726 Y88.626 E3.97689
G1 X81.948 Y88.785 E3.98285
G1 X82.248 Y89.069 E3.99186
G1 X82.402 Y89.326 E3.99839
G1 X82.457 Y89.484 E4.00203
G1 X82.495 Y89.677 E4.00631
G1 X82.503 Y90.166 E4.01698
G1 X82.437 Y90.768 E4.03019
G1 X82.372 Y91.036 E4.03621
G1 X82.285 Y91.267 E4.04158
G1 X82.174 Y91.491 E4.04703
G1 X82.053 Y91.678 E4.05189
G1 X81.922 Y91.834 E4.05633
G1 X81.636 Y92.061 E4.06430
G1 X81.313 Y92.216 E4.07211
G1 X81.124 Y92.267 E4.07637
G1 X80.717 Y92.332 E4.08537
G1 X80.417 Y92.348 E4.09191
G1 X80.156 Y92.337 E4.09761
G1 X79.910 Y92.305 E4.10302
G1 X79.635 Y92.238 E4.10920
G1 X79.377 Y92.142 E4.11520
G1 X79.069 Y91.988 E4.12270
G1 X78.780 Y91.814 E4.13005
G1 X78.512 Y91.618 E4.13729
G1 X78.098 Y91.264 E4.14917
G1 X77.532 Y90.698 E4.16662
G1 X77.589 Y90.269 F9000.000
G1 X78.579 Y90.989 F9000.000
G1 F720
G1 X78.857 Y91.393 E4.17261
G1 X79.309 Y91.774 F9000.000
G1 F720
G1 X79.599 Y91.947 E4.17910
G1 F720
G1 X79.950 Y92.087 E4.18470
G1 F720
G1 X80.284 Y92.158 E4.18754
G1 F720
G1 X80.666 Y92.187 E4.18827
G1 X81.616 Y91.894 F9000.000
G1 F720
G1 X81.702 Y91.795 E4.18869
G1 F720
G1 X81.799 Y91.682 E4.18988
G1 X82.005 Y91.319 E4.19321
