; generated by Slic3r 1.3.0 on 2020-11-05 at 09:00:22

; external perimeters extrusion width = 0.40mm (2.11mm^3/s)
; perimeters extrusion width = 0.40mm (2.64mm^3/s)
; infill extrusion width = 0.50mm (3.38mm^3/s)
; solid infill extrusion width = 0.40mm (2.64mm^3/s)
; top infill extrusion width = 0.32mm (1.94mm^3/s)

M107
M190 S60 ; set bed temperature and wait for it to be reached
M104 S230 ; set temperature
G28 ; home all axes
G1 Z5 F5000 ; lift nozzle

; Filament gcode

M109 S230 ; set temperature and wait for it to be reached
G21 ; set units to millimeters
G90 ; use absolute coordinates
M82 ; use absolute distances for extrusion
G92 E0
G1 Z0.200 F7800.000
G1 E-4.50000 F2400.00000
G92 E0
G1 Z0.400 F7800.000
G1 X42.451 Y43.796 F7800.000
G1 Z0.200 F7800.000
G1 E4.70000 F2400.00000
G1 F2160
G1 X43.099 Y43.177 E4.72156
G1 X43.663 Y42.726 E4.73892
G1 X44.412 Y42.233 E4.76048
G1 X45.047 Y41.890 E4.77784
G1 X45.872 Y41.538 E4.79939
G1 X46.558 Y41.315 E4.81675
G1 X47.432 Y41.115 E4.83831
G1 X48.148 Y41.018 E4.85568
G1 X49.224 Y40.974 E4.88158
G1 X101.224 Y40.974 E6.13196
G1 X101.765 Y41.011 E6.14500
G1 X102.654 Y41.131 E6.16656
G1 X103.357 Y41.292 E6.18391
G1 X104.210 Y41.569 E6.20547
G1 X104.874 Y41.852 E6.22282
G1 X105.663 Y42.277 E6.24438
G1 X106.266 Y42.675 E6.26176
G1 X106.967 Y43.234 E6.28331
G1 X107.489 Y43.733 E6.30068
G1 X108.079 Y44.408 E6.32223
G1 X108.503 Y44.993 E6.33960
G1 X108.963 Y45.762 E6.36115
G1 X109.276 Y46.412 E6.37851
G1 X109.591 Y47.252 E6.40006
G1 X109.783 Y47.948 E6.41743
G1 X109.943 Y48.830 E6.43899
G1 X110.008 Y49.546 E6.45628
G1 X110.028 Y90.840 E7.44921
G1 X110.008 Y100.454 E7.68041
G1 X109.943 Y101.165 E7.69757
G1 X109.783 Y102.047 E7.71913
G1 X109.591 Y102.743 E7.73649
G1 X109.276 Y103.583 E7.75805
G1 X108.963 Y104.233 E7.77540
G1 X108.503 Y105.002 E7.79696
G1 X108.079 Y105.587 E7.81432
G1 X107.489 Y106.262 E7.83588
G1 X106.967 Y106.761 E7.85325
G1 X106.266 Y107.320 E7.87480
G1 X105.663 Y107.718 E7.89218
G1 X104.874 Y108.143 E7.91373
G1 X104.210 Y108.426 E7.93109
G1 X103.357 Y108.703 E7.95264
G1 X102.654 Y108.864 E7.97000
G1 X101.765 Y108.984 E7.99156
G1 X101.231 Y109.021 E8.00444
G1 X51.806 Y109.026 E9.19290
G1 X49.216 Y109.021 E9.25517
G1 X48.148 Y108.976 E9.28089
G1 X47.433 Y108.880 E9.29824
G1 X46.559 Y108.680 E9.31980
G1 X45.872 Y108.457 E9.33717
G1 X45.047 Y108.105 E9.35872
G1 X44.412 Y107.762 E9.37609
G1 X43.663 Y107.269 E9.39764
G1 X43.099 Y106.818 E9.41500
G1 X42.451 Y106.199 E9.43656
G1 X41.975 Y105.655 E9.45394
G1 X41.449 Y104.930 E9.47549
G1 X41.079 Y104.310 E9.49284
G1 X40.690 Y103.503 E9.51440
G1 X40.436 Y102.826 E9.53178
G1 X40.197 Y101.962 E9.55333
G1 X40.068 Y101.252 E9.57068
G1 X39.972 Y99.998 E9.60093
G1 X39.972 Y49.997 E10.80322
G1 X40.068 Y48.743 E10.83347
G1 X40.197 Y48.033 E10.85082
G1 X40.436 Y47.169 E10.87237
G1 X40.690 Y46.493 E10.88975
G1 X41.079 Y45.685 E10.91131
G1 X41.449 Y45.065 E10.92866
G1 X41.975 Y44.340 E10.95021
G1 X42.411 Y43.841 E10.96615
G1 X42.629 Y43.982 F7800.000
G1 F2160
G1 X43.277 Y43.362 E10.98770
G1 X43.805 Y42.941 E11.00396
G1 X44.553 Y42.447 E11.02551
G1 X45.148 Y42.127 E11.04177
G1 X45.973 Y41.774 E11.06332
G1 X46.616 Y41.566 E11.07958
G1 X47.489 Y41.366 E11.10113
G1 X48.160 Y41.275 E11.11739
G1 X49.224 Y41.231 E11.14302
G1 X101.224 Y41.231 E12.39340
G1 X101.731 Y41.265 E12.40561
G1 X102.619 Y41.386 E12.42716
G1 X103.278 Y41.536 E12.44341
G1 X104.131 Y41.813 E12.46497
G1 X104.752 Y42.079 E12.48121
G1 X105.541 Y42.504 E12.50277
G1 X106.106 Y42.876 E12.51904
G1 X106.807 Y43.435 E12.54059
G1 X107.295 Y43.902 E12.55685
G1 X107.885 Y44.577 E12.57840
G1 X108.283 Y45.124 E12.59466
G1 X108.742 Y45.894 E12.61622
G1 X109.035 Y46.503 E12.63246
G1 X109.351 Y47.342 E12.65402
G1 X109.530 Y47.994 E12.67028
G1 X109.691 Y48.876 E12.69183
G1 X109.751 Y49.546 E12.70802
G1 X109.771 Y90.840 E13.70095
G1 X109.751 Y100.454 E13.93213
G1 X109.691 Y101.119 E13.94820
G1 X109.530 Y102.001 E13.96976
G1 X109.351 Y102.653 E13.98602
G1 X109.036 Y103.492 E14.00757
G1 X108.742 Y104.101 E14.02382
G1 X108.283 Y104.871 E14.04537
G1 X107.885 Y105.418 E14.06163
G1 X107.295 Y106.093 E14.08319
G1 X106.807 Y106.560 E14.09945
G1 X106.106 Y107.119 E14.12100
G1 X105.541 Y107.492 E14.13727
G1 X104.752 Y107.916 E14.15882
G1 X104.131 Y108.182 E14.17507
G1 X103.278 Y108.459 E14.19663
G1 X102.619 Y108.609 E14.21288
G1 X101.731 Y108.730 E14.23443
G1 X101.231 Y108.764 E14.24649
G1 X51.799 Y108.769 E15.43512
G1 X49.217 Y108.764 E15.49720
G1 X48.159 Y108.720 E15.52266
G1 X47.490 Y108.629 E15.53890
G1 X46.616 Y108.430 E15.56045
G1 X45.973 Y108.221 E15.57672
G1 X45.148 Y107.868 E15.59827
G1 X44.553 Y107.548 E15.61453
G1 X43.805 Y107.054 E15.63608
G1 X43.277 Y106.633 E15.65233
G1 X42.629 Y106.013 E15.67389
G1 X42.183 Y105.504 E15.69016
G1 X41.657 Y104.778 E15.71171
G1 X41.310 Y104.199 E15.72796
G1 X40.921 Y103.391 E15.74951
G1 X40.683 Y102.757 E15.76578
G1 X40.445 Y101.893 E15.78734
G1 X40.324 Y101.229 E15.80358
G1 X40.229 Y99.998 E15.83327
G1 X40.229 Y49.997 E17.03557
G1 X40.324 Y48.766 E17.06526
G1 X40.445 Y48.102 E17.08150
G1 X40.683 Y47.238 E17.10306
G1 X40.921 Y46.604 E17.11933
G1 X41.310 Y45.796 E17.14088
G1 X41.657 Y45.217 E17.15713
G1 X42.183 Y44.491 E17.17868
G1 X42.589 Y44.027 E17.19350
G1 X42.806 Y44.168 F7800.000
G1 F2160
G1 X43.454 Y43.548 E17.21506
G1 X43.947 Y43.155 E17.23021
G1 X44.695 Y42.662 E17.25176
G1 X45.249 Y42.363 E17.26691
G1 X46.074 Y42.011 E17.28846
G1 X46.673 Y41.816 E17.30361
G1 X47.547 Y41.617 E17.32516
G1 X48.171 Y41.532 E17.34032
G1 X49.224 Y41.488 E17.36566
G1 X101.224 Y41.488 E18.61605
G1 X101.696 Y41.520 E18.62742
G1 X102.585 Y41.641 E18.64898
G1 X103.199 Y41.781 E18.66412
G1 X104.051 Y42.058 E18.68568
G1 X104.630 Y42.305 E18.70081
G1 X105.419 Y42.730 E18.72237
G1 X105.946 Y43.077 E18.73753
G1 X106.646 Y43.636 E18.75908
G1 X107.102 Y44.071 E18.77423
G1 X107.692 Y44.747 E18.79579
G1 X108.062 Y45.256 E18.81094
G1 X108.522 Y46.026 E18.83249
G1 X108.795 Y46.593 E18.84763
G1 X109.110 Y47.432 E18.86919
G1 X109.277 Y48.040 E18.88434
G1 X109.438 Y48.922 E18.90589
G1 X109.494 Y49.547 E18.92098
G1 X109.514 Y75.155 E19.53677
G1 X109.494 Y100.453 E20.14507
G1 X109.438 Y101.073 E20.16004
G1 X109.277 Y101.955 E20.18160
G1 X109.110 Y102.563 E20.19675
G1 X108.795 Y103.402 E20.21830
G1 X108.522 Y103.969 E20.23344
G1 X108.062 Y104.739 E20.25500
G1 X107.692 Y105.248 E20.27015
G1 X107.102 Y105.924 E20.29171
G1 X106.646 Y106.359 E20.30685
G1 X105.946 Y106.918 E20.32841
G1 X105.419 Y107.265 E20.34357
G1 X104.630 Y107.690 E20.36512
G1 X104.051 Y107.937 E20.38026
G1 X103.199 Y108.214 E20.40182
G1 X102.585 Y108.354 E20.41696
G1 X101.696 Y108.475 E20.43852
G1 X101.230 Y108.507 E20.44975
G1 X51.799 Y108.512 E21.63836
G1 X49.217 Y108.507 E21.70044
G1 X48.171 Y108.463 E21.72563
G1 X47.547 Y108.378 E21.74077
G1 X46.673 Y108.179 E21.76232
G1 X46.074 Y107.984 E21.77747
G1 X45.249 Y107.632 E21.79903
G1 X44.695 Y107.333 E21.81417
G1 X43.947 Y106.839 E21.83573
G1 X43.454 Y106.447 E21.85088
G1 X42.806 Y105.827 E21.87243
G1 X42.391 Y105.353 E21.88759
G1 X41.865 Y104.627 E21.90915
G1 X41.542 Y104.087 E21.92428
G1 X41.153 Y103.279 E21.94584
G1 X40.931 Y102.689 E21.96100
G1 X40.693 Y101.825 E21.98255
G1 X40.580 Y101.205 E21.99769
G1 X40.486 Y99.998 E22.02683
G1 X40.486 Y49.997 E23.22912
G1 X40.580 Y48.790 E23.25825
G1 X40.693 Y48.170 E23.27339
G1 X40.931 Y47.306 E23.29495
G1 X41.153 Y46.716 E23.31011
G1 X41.542 Y45.908 E23.33166
G1 X41.865 Y45.368 E23.34680
G1 X42.391 Y44.642 E23.36835
G1 X42.767 Y44.213 E23.38207
G1 X42.984 Y44.354 F7800.000
G1 F2160
G1 X43.632 Y43.734 E23.40363
G1 X44.088 Y43.370 E23.41767
G1 X44.836 Y42.876 E23.43922
G1 X45.351 Y42.600 E23.45326
G1 X46.175 Y42.247 E23.47481
G1 X46.730 Y42.067 E23.48885
G1 X47.604 Y41.867 E23.51040
G1 X48.183 Y41.789 E23.52445
G1 X49.224 Y41.745 E23.54952
G1 X101.224 Y41.745 E24.79990
G1 X101.662 Y41.775 E24.81044
G1 X102.550 Y41.895 E24.83200
G1 X103.119 Y42.025 E24.84603
G1 X103.972 Y42.302 E24.86759
G1 X104.508 Y42.532 E24.88162
G1 X105.298 Y42.956 E24.90318
G1 X105.785 Y43.278 E24.91723
G1 X106.486 Y43.837 E24.93878
G1 X106.908 Y44.241 E24.95282
G1 X107.498 Y44.916 E24.97438
G1 X107.841 Y45.388 E24.98842
G1 X108.301 Y46.158 E25.00997
G1 X108.554 Y46.683 E25.02400
G1 X108.869 Y47.523 E25.04556
G1 X109.025 Y48.086 E25.05960
G1 X109.185 Y48.968 E25.08116
G1 X109.237 Y49.547 E25.09514
G1 X109.257 Y75.155 E25.71092
G1 X109.237 Y100.453 E26.31921
G1 X109.185 Y101.027 E26.33309
G1 X109.025 Y101.909 E26.35465
G1 X108.869 Y102.472 E26.36869
G1 X108.554 Y103.311 E26.39024
G1 X108.301 Y103.837 E26.40428
G1 X107.841 Y104.607 E26.42583
G1 X107.498 Y105.079 E26.43987
G1 X106.908 Y105.754 E26.46143
G1 X106.486 Y106.158 E26.47547
G1 X105.785 Y106.717 E26.49703
G1 X105.298 Y107.039 E26.51108
G1 X104.508 Y107.463 E26.53263
G1 X103.972 Y107.693 E26.54666
G1 X103.119 Y107.970 E26.56822
G1 X102.550 Y108.100 E26.58225
G1 X101.662 Y108.220 E26.60381
G1 X101.230 Y108.250 E26.61422
G1 X51.800 Y108.255 E27.80281
G1 X49.218 Y108.250 E27.86489
G1 X48.182 Y108.206 E27.88981
G1 X47.604 Y108.128 E27.90384
G1 X46.730 Y107.928 E27.92540
G1 X46.175 Y107.748 E27.93944
G1 X45.350 Y107.395 E27.96100
G1 X44.836 Y107.119 E27.97503
G1 X44.088 Y106.625 E27.99659
G1 X43.632 Y106.261 E28.01063
G1 X42.984 Y105.641 E28.03218
G1 X42.599 Y105.201 E28.04623
G1 X42.073 Y104.476 E28.06779
G1 X41.773 Y103.975 E28.08181
G1 X41.384 Y103.168 E28.10337
G1 X41.179 Y102.621 E28.11742
G1 X40.941 Y101.757 E28.13898
G1 X40.836 Y101.182 E28.15301
G1 X40.743 Y99.998 E28.18159
G1 X40.743 Y49.997 E29.38388
G1 X40.836 Y48.813 E29.41246
G1 X40.941 Y48.238 E29.42649
G1 X41.179 Y47.374 E29.44805
G1 X41.384 Y46.827 E29.46210
G1 X41.773 Y46.020 E29.48366
G1 X42.073 Y45.519 E29.49768
G1 X42.599 Y44.794 E29.51924
G1 X42.944 Y44.399 E29.53185
G1 E25.03185 F2400.00000
G92 E0
G1 Z0.400 F7800.000
G1 X51.233 Y99.381 F7800.000
G1 Z0.200 F7800.000
G1 E4.70000 F2400.00000
G1 F1332
G1 X51.308 Y99.790 E4.70999
G1 X51.308 Y100.205 E4.71998
G1 X51.233 Y100.614 E4.72997
G1 X51.087 Y101.003 E4.73995
G1 X50.874 Y101.359 E4.74994
G1 X50.601 Y101.672 E4.75993
G1 X50.276 Y101.931 E4.76992
G1 X49.911 Y102.128 E4.77990
G1 X49.516 Y102.256 E4.78989
G1 X49.104 Y102.312 E4.79988
G1 X48.689 Y102.293 E4.80987
G1 X48.284 Y102.201 E4.81986
G1 X47.902 Y102.038 E4.82984
G1 X47.555 Y101.809 E4.83983
G1 X47.255 Y101.522 E4.84982
G1 X47.011 Y101.186 E4.85980
G1 X46.831 Y100.812 E4.86979
G1 X46.720 Y100.411 E4.87978
G1 X46.683 Y99.998 E4.88977
G1 X46.720 Y99.584 E4.89976
G1 X46.831 Y99.183 E4.90975
G1 X47.011 Y98.809 E4.91973
G1 X47.255 Y98.473 E4.92972
G1 X47.555 Y98.186 E4.93971
G1 X47.902 Y97.957 E4.94970
G1 X48.284 Y97.794 E4.95968
G1 X48.689 Y97.702 E4.96967
G1 X49.104 Y97.683 E4.97966
G1 X49.516 Y97.739 E4.98965
G1 X49.911 Y97.867 E4.99963
G1 X50.276 Y98.064 E5.00962
G1 X50.601 Y98.323 E5.01961
G1 X50.874 Y98.636 E5.02960
G1 X51.087 Y98.992 E5.03958
G1 X51.212 Y99.325 E5.04813
G1 X50.984 Y99.450 F7800.000
G1 F1332
G1 X51.050 Y99.813 E5.05700
G1 X51.050 Y100.182 E5.06588
G1 X50.984 Y100.545 E5.07476
G1 X50.855 Y100.891 E5.08363
G1 X50.666 Y101.208 E5.09250
G1 X50.423 Y101.486 E5.10138
G1 X50.134 Y101.716 E5.11025
G1 X49.809 Y101.891 E5.11913
G1 X49.458 Y102.005 E5.12800
G1 X49.092 Y102.054 E5.13688
G1 X48.724 Y102.038 E5.14575
G1 X48.364 Y101.955 E5.15463
G1 X48.024 Y101.810 E5.16350
G1 X47.716 Y101.607 E5.17238
G1 X47.450 Y101.352 E5.18125
G1 X47.233 Y101.053 E5.19013
G1 X47.073 Y100.721 E5.19900
G1 X46.974 Y100.365 E5.20788
G1 X46.941 Y99.998 E5.21675
G1 X46.974 Y99.630 E5.22563
G1 X47.073 Y99.274 E5.23450
G1 X47.233 Y98.942 E5.24338
G1 X47.450 Y98.643 E5.25225
G1 X47.716 Y98.388 E5.26113
G1 X48.024 Y98.185 E5.27000
G1 X48.364 Y98.040 E5.27888
G1 X48.724 Y97.957 E5.28775
G1 X49.092 Y97.941 E5.29663
G1 X49.458 Y97.990 E5.30550
G1 X49.809 Y98.104 E5.31438
G1 X50.134 Y98.279 E5.32325
G1 X50.423 Y98.509 E5.33213
G1 X50.666 Y98.787 E5.34100
G1 X50.855 Y99.104 E5.34988
G1 X50.963 Y99.394 E5.35731
G1 X50.736 Y99.518 F7800.000
G1 F1332
G1 X50.793 Y99.836 E5.36507
G1 X50.793 Y100.159 E5.37283
G1 X50.736 Y100.477 E5.38060
G1 X50.622 Y100.779 E5.38836
G1 X50.457 Y101.056 E5.39612
G1 X50.244 Y101.299 E5.40388
G1 X49.992 Y101.500 E5.41164
G1 X49.708 Y101.653 E5.41941
G1 X49.401 Y101.753 E5.42717
G1 X49.081 Y101.796 E5.43493
G1 X48.758 Y101.782 E5.44269
G1 X48.444 Y101.710 E5.45046
G1 X48.147 Y101.583 E5.45822
G1 X47.877 Y101.405 E5.46598
G1 X47.644 Y101.182 E5.47374
G1 X47.454 Y100.921 E5.48150
G1 X47.314 Y100.630 E5.48927
G1 X47.228 Y100.319 E5.49703
G1 X47.199 Y99.998 E5.50479
G1 X47.228 Y99.676 E5.51255
G1 X47.314 Y99.365 E5.52032
G1 X47.454 Y99.074 E5.52808
G1 X47.644 Y98.813 E5.53584
G1 X47.877 Y98.590 E5.54360
G1 X48.147 Y98.412 E5.55137
G1 X48.444 Y98.285 E5.55913
G1 X48.758 Y98.213 E5.56689
G1 X49.081 Y98.199 E5.57465
G1 X49.401 Y98.242 E5.58241
G1 X49.708 Y98.342 E5.59018
G1 X49.992 Y98.495 E5.59794
G1 X50.244 Y98.696 E5.60570
G1 X50.457 Y98.939 E5.61346
G1 X50.622 Y99.216 E5.62123
G1 X50.715 Y99.462 E5.62754
G1 X50.736 Y99.518 F7800.000
G1 E1.12754 F2400.00000
G92 E0
G1 Z0.400 F7800.000
G1 X54.345 Y81.605 F7800.000
G1 Z0.200 F7800.000
G1 E4.70000 F2400.00000
G1 F1332
G1 X53.711 Y81.430 E4.71583
G1 X53.111 Y81.139 E4.73185
G1 X52.587 Y80.759 E4.74742
G1 X52.133 Y80.284 E4.76323
G1 X51.771 Y79.735 E4.77903
G1 X51.513 Y79.131 E4.79484
G1 X51.366 Y78.490 E4.81065
G1 X51.337 Y77.833 E4.82645
G1 X51.425 Y77.182 E4.84226
G1 X51.628 Y76.556 E4.85807
G1 X51.940 Y75.977 E4.87388
G1 X52.350 Y75.463 E4.88968
G1 X52.845 Y75.031 E4.90549
G1 X53.409 Y74.694 E4.92130
G1 X54.025 Y74.463 E4.93711
G1 X54.671 Y74.345 E4.95292
G1 X55.329 Y74.345 E4.96872
G1 X55.975 Y74.463 E4.98453
G1 X56.592 Y74.694 E5.00036
G1 X57.163 Y75.038 E5.01638
G1 X57.650 Y75.463 E5.03195
G1 X58.060 Y75.977 E5.04776
G1 X58.372 Y76.556 E5.06356
G1 X58.575 Y77.182 E5.07937
G1 X58.663 Y77.833 E5.09518
G1 X58.634 Y78.490 E5.11099
G1 X58.487 Y79.131 E5.12679
G1 X58.229 Y79.735 E5.14260
G1 X57.867 Y80.284 E5.15841
G1 X57.413 Y80.759 E5.17422
G1 X56.881 Y81.145 E5.19002
G1 X56.288 Y81.431 E5.20583
G1 X55.655 Y81.605 E5.22164
G1 X55.000 Y81.664 E5.23745
G1 X54.405 Y81.611 E5.25181
G1 X54.391 Y81.351 F7800.000
G1 F1332
G1 X53.802 Y81.189 E5.26652
G1 X53.244 Y80.918 E5.28143
G1 X52.757 Y80.565 E5.29589
G1 X52.335 Y80.123 E5.31059
G1 X51.998 Y79.613 E5.32528
G1 X51.758 Y79.051 E5.33998
G1 X51.622 Y78.455 E5.35467
G1 X51.595 Y77.845 E5.36936
G1 X51.677 Y77.239 E5.38406
G1 X51.866 Y76.658 E5.39875
G1 X52.155 Y76.120 E5.41345
G1 X52.536 Y75.642 E5.42814
G1 X52.996 Y75.240 E5.44284
G1 X53.521 Y74.926 E5.45753
G1 X54.093 Y74.712 E5.47223
G1 X54.694 Y74.603 E5.48692
G1 X55.306 Y74.603 E5.50162
G1 X55.907 Y74.712 E5.51631
G1 X56.480 Y74.927 E5.53102
G1 X57.011 Y75.246 E5.54593
G1 X57.464 Y75.642 E5.56039
G1 X57.845 Y76.120 E5.57509
G1 X58.134 Y76.658 E5.58978
G1 X58.323 Y77.239 E5.60448
G1 X58.405 Y77.845 E5.61917
G1 X58.378 Y78.455 E5.63387
G1 X58.242 Y79.051 E5.64856
G1 X58.002 Y79.613 E5.66326
G1 X57.665 Y80.123 E5.67795
G1 X57.243 Y80.565 E5.69265
G1 X56.748 Y80.924 E5.70734
G1 X56.198 Y81.189 E5.72204
G1 X55.609 Y81.351 E5.73673
G1 X55.000 Y81.406 E5.75142
G1 X54.451 Y81.357 E5.76468
G1 X54.437 Y81.097 F7800.000
G1 F1332
G1 X53.893 Y80.947 E5.77826
G1 X53.377 Y80.697 E5.79206
G1 X52.927 Y80.370 E5.80542
G1 X52.537 Y79.962 E5.81900
G1 X52.226 Y79.490 E5.83258
G1 X52.004 Y78.971 E5.84616
G1 X51.878 Y78.420 E5.85975
G1 X51.853 Y77.856 E5.87333
G1 X51.928 Y77.296 E5.88691
G1 X52.103 Y76.759 E5.90049
G1 X52.371 Y76.262 E5.91407
G1 X52.723 Y75.820 E5.92766
G1 X53.148 Y75.449 E5.94124
G1 X53.633 Y75.159 E5.95482
G1 X54.162 Y74.960 E5.96840
G1 X54.718 Y74.860 E5.98198
G1 X55.282 Y74.860 E5.99557
G1 X55.838 Y74.960 E6.00915
G1 X56.367 Y75.159 E6.02274
G1 X56.859 Y75.455 E6.03653
G1 X57.277 Y75.820 E6.04989
G1 X57.629 Y76.262 E6.06347
G1 X57.897 Y76.759 E6.07705
G1 X58.072 Y77.296 E6.09064
G1 X58.147 Y77.856 E6.10422
G1 X58.122 Y78.420 E6.11780
G1 X57.996 Y78.971 E6.13138
G1 X57.774 Y79.490 E6.14497
G1 X57.463 Y79.962 E6.15855
G1 X57.073 Y80.370 E6.17213
G1 X56.616 Y80.702 E6.18571
