; generated by Slic3r 1.3.0 on 2020-11-05 at 08:59:27

; external perimeters extrusion width = 0.40mm (2.11mm^3/s)
; perimeters extrusion width = 0.40mm (2.64mm^3/s)
; infill extrusion width = 0.50mm (3.38mm^3/s)
; solid infill extrusion width = 0.40mm (2.64mm^3/s)
; top infill extrusion width = 0.32mm (1.94mm^3/s)

M107
M190 S60 ; set bed temperature and wait for it to be reached
M104 S230 ; set temperature
G28 ; home all axes
G1 Z5 F5000 ; lift nozzle

; Filament gcode

M109 S230 ; set temperature and wait for it to be reached
G21 ; set units to millimeters
G90 ; use absolute coordinates
M82 ; use absolute distances for extrusion
G92 E0
G1 Z0.200 F7800.000
G1 E-4.50000 F2400.00000
G92 E0
G1 Z0.400 F7800.000
G1 X42.511 Y43.733 F7800.000
G1 Z0.200 F7800.000
G1 E4.70000 F2400.00000
G1 F2160
G1 X43.033 Y43.234 E4.71736
G1 X43.734 Y42.675 E4.73892
G1 X44.337 Y42.277 E4.75629
G1 X45.126 Y41.852 E4.77785
G1 X45.790 Y41.569 E4.79520
G1 X46.643 Y41.292 E4.81676
G1 X47.346 Y41.131 E4.83412
G1 X48.235 Y41.011 E4.85567
G1 X48.776 Y40.974 E4.86871
G1 X100.776 Y40.974 E6.11910
G1 X101.852 Y41.018 E6.14500
G1 X102.568 Y41.115 E6.16237
G1 X103.442 Y41.315 E6.18392
G1 X104.128 Y41.538 E6.20128
G1 X104.953 Y41.890 E6.22284
G1 X105.588 Y42.233 E6.24020
G1 X106.337 Y42.726 E6.26176
G1 X106.901 Y43.177 E6.27912
G1 X107.549 Y43.796 E6.30068
G1 X108.025 Y44.340 E6.31805
G1 X108.551 Y45.065 E6.33961
G1 X108.921 Y45.685 E6.35696
G1 X109.311 Y46.493 E6.37851
G1 X109.564 Y47.169 E6.39589
G1 X109.803 Y48.033 E6.41745
G1 X109.932 Y48.743 E6.43480
G1 X110.028 Y49.997 E6.46504
G1 X110.028 Y99.998 E7.66734
G1 X109.932 Y101.252 E7.69758
G1 X109.803 Y101.962 E7.71493
G1 X109.564 Y102.826 E7.73649
G1 X109.310 Y103.503 E7.75387
G1 X108.921 Y104.310 E7.77543
G1 X108.551 Y104.930 E7.79278
G1 X108.025 Y105.655 E7.81433
G1 X107.549 Y106.199 E7.83170
G1 X106.901 Y106.818 E7.85326
G1 X106.337 Y107.269 E7.87062
G1 X105.588 Y107.762 E7.89218
G1 X104.953 Y108.105 E7.90954
G1 X104.128 Y108.457 E7.93110
G1 X103.441 Y108.680 E7.94846
G1 X102.567 Y108.880 E7.97002
G1 X101.852 Y108.976 E7.98737
G1 X100.784 Y109.021 E8.01310
G1 X98.202 Y109.026 E8.07518
G1 X48.769 Y109.021 E9.26383
G1 X48.235 Y108.984 E9.27671
G1 X47.346 Y108.864 E9.29826
G1 X46.643 Y108.703 E9.31562
G1 X45.790 Y108.426 E9.33718
G1 X45.126 Y108.143 E9.35453
G1 X44.337 Y107.718 E9.37609
G1 X43.734 Y107.320 E9.39346
G1 X43.033 Y106.761 E9.41502
G1 X42.511 Y106.262 E9.43238
G1 X41.921 Y105.587 E9.45394
G1 X41.497 Y105.002 E9.47131
G1 X41.037 Y104.233 E9.49286
G1 X40.724 Y103.583 E9.51022
G1 X40.409 Y102.743 E9.53177
G1 X40.217 Y102.047 E9.54914
G1 X40.057 Y101.165 E9.57069
G1 X39.992 Y100.454 E9.58786
G1 X39.972 Y90.840 E9.81905
G1 X39.992 Y49.546 E10.81199
G1 X40.057 Y48.830 E10.82928
G1 X40.217 Y47.948 E10.85084
G1 X40.409 Y47.252 E10.86820
G1 X40.724 Y46.412 E10.88976
G1 X41.037 Y45.762 E10.90711
G1 X41.497 Y44.993 E10.92867
G1 X41.921 Y44.408 E10.94603
G1 X42.472 Y43.778 E10.96615
G1 X42.705 Y43.902 F7800.000
G1 F2160
G1 X43.193 Y43.435 E10.98240
G1 X43.894 Y42.876 E11.00396
G1 X44.459 Y42.504 E11.02023
G1 X45.248 Y42.079 E11.04178
G1 X45.869 Y41.813 E11.05803
G1 X46.722 Y41.536 E11.07958
G1 X47.381 Y41.386 E11.09583
G1 X48.269 Y41.265 E11.11739
G1 X48.776 Y41.231 E11.12960
G1 X100.776 Y41.231 E12.37998
G1 X101.840 Y41.275 E12.40560
G1 X102.510 Y41.366 E12.42186
G1 X103.384 Y41.566 E12.44342
G1 X104.027 Y41.774 E12.45967
G1 X104.852 Y42.127 E12.48123
G1 X105.447 Y42.447 E12.49748
G1 X106.195 Y42.941 E12.51904
G1 X106.723 Y43.362 E12.53529
G1 X107.371 Y43.982 E12.55685
G1 X107.817 Y44.491 E12.57312
G1 X108.343 Y45.217 E12.59467
G1 X108.690 Y45.796 E12.61091
G1 X109.079 Y46.604 E12.63247
G1 X109.317 Y47.238 E12.64874
G1 X109.555 Y48.102 E12.67029
G1 X109.676 Y48.766 E12.68654
G1 X109.771 Y49.997 E12.71623
G1 X109.771 Y99.998 E13.91852
G1 X109.676 Y101.229 E13.94821
G1 X109.555 Y101.893 E13.96446
G1 X109.317 Y102.757 E13.98601
G1 X109.079 Y103.391 E14.00228
G1 X108.690 Y104.199 E14.02384
G1 X108.343 Y104.778 E14.04008
G1 X107.817 Y105.504 E14.06164
G1 X107.371 Y106.013 E14.07790
G1 X106.723 Y106.633 E14.09946
G1 X106.195 Y107.054 E14.11571
G1 X105.447 Y107.548 E14.13727
G1 X104.852 Y107.868 E14.15352
G1 X104.027 Y108.221 E14.17508
G1 X103.384 Y108.429 E14.19134
G1 X102.510 Y108.629 E14.21290
G1 X101.841 Y108.720 E14.22914
G1 X100.783 Y108.764 E14.25460
G1 X98.201 Y108.769 E14.31668
G1 X48.769 Y108.764 E15.50530
G1 X48.269 Y108.730 E15.51736
G1 X47.381 Y108.609 E15.53892
G1 X46.722 Y108.459 E15.55517
G1 X45.869 Y108.182 E15.57672
G1 X45.248 Y107.916 E15.59297
G1 X44.459 Y107.492 E15.61453
G1 X43.894 Y107.119 E15.63079
G1 X43.193 Y106.560 E15.65235
G1 X42.705 Y106.093 E15.66860
G1 X42.115 Y105.418 E15.69016
G1 X41.717 Y104.871 E15.70642
G1 X41.258 Y104.101 E15.72798
G1 X40.964 Y103.492 E15.74422
G1 X40.649 Y102.653 E15.76578
G1 X40.470 Y102.001 E15.78204
G1 X40.309 Y101.119 E15.80359
G1 X40.249 Y100.454 E15.81966
G1 X40.229 Y90.840 E16.05084
G1 X40.249 Y49.546 E17.04377
G1 X40.309 Y48.876 E17.05996
G1 X40.470 Y47.994 E17.08152
G1 X40.649 Y47.342 E17.09777
G1 X40.965 Y46.503 E17.11933
G1 X41.258 Y45.894 E17.13558
G1 X41.717 Y45.125 E17.15713
G1 X42.115 Y44.577 E17.17339
G1 X42.665 Y43.947 E17.19350
G1 X42.898 Y44.071 F7800.000
G1 F2160
G1 X43.354 Y43.636 E17.20865
G1 X44.054 Y43.077 E17.23021
G1 X44.581 Y42.730 E17.24537
G1 X45.370 Y42.305 E17.26692
G1 X45.949 Y42.058 E17.28206
G1 X46.801 Y41.781 E17.30362
G1 X47.415 Y41.641 E17.31876
G1 X48.304 Y41.520 E17.34031
G1 X48.776 Y41.488 E17.35169
G1 X100.776 Y41.488 E18.60207
G1 X101.829 Y41.532 E18.62742
G1 X102.453 Y41.617 E18.64257
G1 X103.327 Y41.816 E18.66413
G1 X103.926 Y42.011 E18.67927
G1 X104.751 Y42.363 E18.70083
G1 X105.305 Y42.662 E18.71597
G1 X106.053 Y43.155 E18.73753
G1 X106.546 Y43.548 E18.75267
G1 X107.194 Y44.168 E18.77423
G1 X107.609 Y44.642 E18.78939
G1 X108.135 Y45.368 E18.81094
G1 X108.458 Y45.908 E18.82608
G1 X108.847 Y46.716 E18.84764
G1 X109.069 Y47.306 E18.86280
G1 X109.307 Y48.170 E18.88435
G1 X109.420 Y48.790 E18.89949
G1 X109.514 Y49.997 E18.92862
G1 X109.514 Y99.998 E20.13092
G1 X109.420 Y101.205 E20.16005
G1 X109.307 Y101.825 E20.17519
G1 X109.069 Y102.689 E20.19675
G1 X108.847 Y103.279 E20.21191
G1 X108.458 Y104.087 E20.23346
G1 X108.135 Y104.627 E20.24860
G1 X107.609 Y105.353 E20.27015
G1 X107.194 Y105.827 E20.28531
G1 X106.546 Y106.447 E20.30687
G1 X106.053 Y106.839 E20.32201
G1 X105.305 Y107.333 E20.34357
G1 X104.750 Y107.632 E20.35872
G1 X103.926 Y107.984 E20.38027
G1 X103.327 Y108.179 E20.39542
G1 X102.453 Y108.378 E20.41698
G1 X101.829 Y108.463 E20.43211
G1 X100.783 Y108.507 E20.45730
G1 X98.201 Y108.512 E20.51939
G1 X48.770 Y108.507 E21.70799
G1 X48.304 Y108.475 E21.71923
G1 X47.415 Y108.354 E21.74078
G1 X46.801 Y108.214 E21.75593
G1 X45.949 Y107.937 E21.77748
G1 X45.370 Y107.690 E21.79262
G1 X44.581 Y107.265 E21.81417
G1 X44.054 Y106.918 E21.82933
G1 X43.354 Y106.359 E21.85089
G1 X42.898 Y105.924 E21.86604
G1 X42.308 Y105.248 E21.88759
G1 X41.938 Y104.739 E21.90274
G1 X41.478 Y103.969 E21.92430
G1 X41.205 Y103.402 E21.93944
G1 X40.890 Y102.563 E21.96100
G1 X40.723 Y101.955 E21.97614
G1 X40.562 Y101.073 E21.99770
G1 X40.506 Y100.453 E22.01267
G1 X40.486 Y90.840 E22.24384
G1 X40.506 Y49.547 E23.23677
G1 X40.562 Y48.922 E23.25185
G1 X40.723 Y48.040 E23.27341
G1 X40.890 Y47.432 E23.28856
G1 X41.205 Y46.593 E23.31011
G1 X41.478 Y46.026 E23.32525
G1 X41.938 Y45.256 E23.34680
G1 X42.308 Y44.747 E23.36196
G1 X42.859 Y44.117 E23.38207
G1 X43.092 Y44.241 F7800.000
G1 F2160
G1 X43.514 Y43.837 E23.39611
G1 X44.215 Y43.278 E23.41766
G1 X44.702 Y42.956 E23.43171
G1 X45.492 Y42.532 E23.45327
G1 X46.028 Y42.302 E23.46730
G1 X46.881 Y42.025 E23.48886
G1 X47.450 Y41.895 E23.50289
G1 X48.338 Y41.775 E23.52445
G1 X48.776 Y41.745 E23.53499
G1 X100.776 Y41.745 E24.78537
G1 X101.817 Y41.789 E24.81044
G1 X102.396 Y41.867 E24.82449
G1 X103.270 Y42.067 E24.84604
G1 X103.825 Y42.247 E24.86008
G1 X104.649 Y42.600 E24.88163
G1 X105.164 Y42.876 E24.89567
G1 X105.912 Y43.370 E24.91723
G1 X106.368 Y43.734 E24.93126
G1 X107.016 Y44.354 E24.95282
G1 X107.401 Y44.794 E24.96687
G1 X107.927 Y45.519 E24.98843
G1 X108.227 Y46.020 E25.00245
G1 X108.616 Y46.827 E25.02401
G1 X108.821 Y47.374 E25.03806
G1 X109.059 Y48.238 E25.05962
G1 X109.164 Y48.813 E25.07365
G1 X109.257 Y49.997 E25.10223
G1 X109.257 Y99.998 E26.30452
G1 X109.164 Y101.182 E26.33310
G1 X109.059 Y101.757 E26.34713
G1 X108.821 Y102.621 E26.36869
G1 X108.616 Y103.168 E26.38274
G1 X108.227 Y103.975 E26.40429
G1 X107.927 Y104.476 E26.41832
G1 X107.401 Y105.201 E26.43988
G1 X107.016 Y105.641 E26.45393
G1 X106.368 Y106.261 E26.47548
G1 X105.912 Y106.625 E26.48952
G1 X105.164 Y107.119 E26.51108
G1 X104.649 Y107.395 E26.52512
G1 X103.825 Y107.748 E26.54667
G1 X103.270 Y107.928 E26.56071
G1 X102.396 Y108.128 E26.58227
G1 X101.818 Y108.206 E26.59630
G1 X100.782 Y108.250 E26.62122
G1 X98.200 Y108.255 E26.68330
G1 X48.770 Y108.250 E27.87189
G1 X48.338 Y108.220 E27.88230
G1 X47.450 Y108.100 E27.90386
G1 X46.881 Y107.970 E27.91789
G1 X46.028 Y107.693 E27.93945
G1 X45.492 Y107.463 E27.95348
G1 X44.702 Y107.039 E27.97503
G1 X44.215 Y106.717 E27.98908
G1 X43.514 Y106.158 E28.01064
G1 X43.092 Y105.754 E28.02468
G1 X42.502 Y105.079 E28.04624
G1 X42.159 Y104.607 E28.06028
G1 X41.699 Y103.837 E28.08183
G1 X41.446 Y103.311 E28.09586
G1 X41.131 Y102.472 E28.11742
G1 X40.975 Y101.909 E28.13146
G1 X40.815 Y101.027 E28.15302
G1 X40.763 Y100.453 E28.16690
G1 X40.743 Y90.840 E28.39805
G1 X40.763 Y49.547 E29.39097
G1 X40.815 Y48.968 E29.40495
G1 X40.975 Y48.086 E29.42651
G1 X41.131 Y47.523 E29.44055
G1 X41.446 Y46.683 E29.46210
G1 X41.699 Y46.158 E29.47614
G1 X42.159 Y45.388 E29.49769
G1 X42.502 Y44.916 E29.51173
G1 X43.052 Y44.286 E29.53185
G1 E25.03185 F2400.00000
G92 E0
G1 Z0.400 F7800.000
G1 X51.169 Y99.183 F7800.000
G1 Z0.200 F7800.000
G1 E4.70000 F2400.00000
G1 F1332
G1 X51.280 Y99.584 E4.70999
G1 X51.317 Y99.998 E4.71998
G1 X51.280 Y100.411 E4.72996
G1 X51.169 Y100.812 E4.73995
G1 X50.989 Y101.186 E4.74994
G1 X50.745 Y101.522 E4.75993
G1 X50.445 Y101.809 E4.76991
G1 X50.098 Y102.038 E4.77990
G1 X49.716 Y102.201 E4.78989
G1 X49.311 Y102.293 E4.79988
G1 X48.896 Y102.312 E4.80987
G1 X48.484 Y102.256 E4.81985
G1 X48.089 Y102.128 E4.82984
G1 X47.724 Y101.931 E4.83983
G1 X47.399 Y101.672 E4.84982
G1 X47.126 Y101.359 E4.85981
G1 X46.913 Y101.003 E4.86979
G1 X46.767 Y100.614 E4.87978
G1 X46.692 Y100.205 E4.88977
G1 X46.692 Y99.790 E4.89976
G1 X46.767 Y99.381 E4.90975
G1 X46.913 Y98.992 E4.91973
G1 X47.126 Y98.636 E4.92972
G1 X47.399 Y98.323 E4.93971
G1 X47.724 Y98.064 E4.94969
G1 X48.089 Y97.867 E4.95968
G1 X48.484 Y97.739 E4.96967
G1 X48.879 Y97.685 E4.97923
G1 X49.308 Y97.701 E4.98957
G1 X49.716 Y97.794 E4.99963
G1 X50.098 Y97.957 E5.00961
G1 X50.445 Y98.186 E5.01960
G1 X50.745 Y98.473 E5.02959
G1 X50.989 Y98.809 E5.03958
G1 X51.143 Y99.129 E5.04812
G1 X50.927 Y99.274 F7800.000
G1 F1332
G1 X51.026 Y99.630 E5.05700
G1 X51.059 Y99.998 E5.06587
G1 X51.026 Y100.365 E5.07475
G1 X50.927 Y100.721 E5.08362
G1 X50.767 Y101.053 E5.09250
G1 X50.550 Y101.352 E5.10137
G1 X50.284 Y101.607 E5.11025
G1 X49.976 Y101.810 E5.11912
G1 X49.636 Y101.955 E5.12800
G1 X49.276 Y102.038 E5.13687
G1 X48.908 Y102.054 E5.14575
G1 X48.542 Y102.005 E5.15462
G1 X48.191 Y101.891 E5.16350
G1 X47.866 Y101.716 E5.17237
G1 X47.577 Y101.486 E5.18125
G1 X47.334 Y101.208 E5.19012
G1 X47.145 Y100.891 E5.19900
G1 X47.016 Y100.545 E5.20787
G1 X46.950 Y100.182 E5.21675
G1 X46.950 Y99.813 E5.22562
G1 X47.016 Y99.450 E5.23450
G1 X47.145 Y99.104 E5.24337
G1 X47.334 Y98.787 E5.25224
G1 X47.577 Y98.509 E5.26112
G1 X47.866 Y98.279 E5.27000
G1 X48.191 Y98.104 E5.27887
G1 X48.542 Y97.990 E5.28775
G1 X48.891 Y97.943 E5.29622
G1 X49.275 Y97.957 E5.30545
G1 X49.636 Y98.040 E5.31437
G1 X49.976 Y98.185 E5.32324
G1 X50.284 Y98.388 E5.33212
G1 X50.550 Y98.643 E5.34099
G1 X50.767 Y98.942 E5.34986
G1 X50.901 Y99.220 E5.35730
G1 X50.686 Y99.365 F7800.000
G1 F1332
G1 X50.772 Y99.676 E5.36506
G1 X50.801 Y99.998 E5.37282
G1 X50.772 Y100.319 E5.38058
G1 X50.686 Y100.630 E5.38835
G1 X50.546 Y100.921 E5.39611
G1 X50.356 Y101.182 E5.40387
G1 X50.123 Y101.405 E5.41163
G1 X49.853 Y101.583 E5.41940
G1 X49.556 Y101.710 E5.42716
G1 X49.242 Y101.782 E5.43492
G1 X48.919 Y101.796 E5.44268
G1 X48.599 Y101.753 E5.45045
G1 X48.292 Y101.653 E5.45821
G1 X48.008 Y101.500 E5.46597
G1 X47.756 Y101.299 E5.47373
G1 X47.543 Y101.056 E5.48149
G1 X47.378 Y100.779 E5.48926
G1 X47.264 Y100.477 E5.49702
G1 X47.207 Y100.159 E5.50478
G1 X47.207 Y99.836 E5.51254
G1 X47.264 Y99.518 E5.52031
G1 X47.378 Y99.216 E5.52807
G1 X47.543 Y98.939 E5.53583
G1 X47.756 Y98.696 E5.54359
G1 X48.008 Y98.495 E5.55135
G1 X48.292 Y98.342 E5.55912
G1 X48.599 Y98.242 E5.56688
G1 X48.904 Y98.201 E5.57427
G1 X49.241 Y98.213 E5.58238
G1 X49.556 Y98.285 E5.59016
G1 X49.853 Y98.412 E5.59792
G1 X50.123 Y98.590 E5.60568
G1 X50.356 Y98.813 E5.61345
G1 X50.546 Y99.074 E5.62121
G1 X50.660 Y99.311 E5.62753
G1 X50.686 Y99.365 F7800.000
G1 E1.12753 F2400.00000
G92 E0
G1 Z0.400 F7800.000
G1 X54.345 Y81.605 F7800.000
G1 Z0.200 F7800.000
G1 E4.70000 F2400.00000
G1 F1332
G1 X53.712 Y81.431 E4.71581
G1 X53.119 Y81.145 E4.73161
G1 X52.587 Y80.759 E4.74742
G1 X52.133 Y80.284 E4.76323
G1 X51.771 Y79.735 E4.77904
G1 X51.513 Y79.131 E4.79484
G1 X51.366 Y78.490 E4.81065
G1 X51.337 Y77.832 E4.82648
G1 X51.428 Y77.172 E4.84250
G1 X51.628 Y76.556 E4.85807
G1 X51.940 Y75.977 E4.87388
G1 X52.350 Y75.463 E4.88968
G1 X52.845 Y75.031 E4.90549
G1 X53.409 Y74.694 E4.92130
G1 X54.025 Y74.463 E4.93711
G1 X54.671 Y74.345 E4.95292
G1 X55.329 Y74.345 E4.96872
G1 X55.975 Y74.463 E4.98453
G1 X56.591 Y74.694 E5.00034
G1 X57.156 Y75.031 E5.01617
G1 X57.657 Y75.471 E5.03219
G1 X58.060 Y75.977 E5.04776
G1 X58.372 Y76.556 E5.06356
G1 X58.575 Y77.182 E5.07937
G1 X58.663 Y77.833 E5.09518
G1 X58.634 Y78.490 E5.11099
G1 X58.487 Y79.131 E5.12679
G1 X58.229 Y79.735 E5.14260
G1 X57.867 Y80.284 E5.15841
G1 X57.413 Y80.759 E5.17422
G1 X56.881 Y81.145 E5.19002
G1 X56.288 Y81.431 E5.20583
G1 X55.655 Y81.605 E5.22164
G1 X55.000 Y81.664 E5.23745
G1 X54.405 Y81.611 E5.25181
G1 X54.391 Y81.351 F7800.000
G1 F1332
G1 X53.802 Y81.189 E5.26650
G1 X53.252 Y80.924 E5.28120
G1 X52.757 Y80.565 E5.29589
G1 X52.335 Y80.123 E5.31059
G1 X51.998 Y79.613 E5.32528
G1 X51.758 Y79.051 E5.33998
G1 X51.622 Y78.455 E5.35467
G1 X51.595 Y77.844 E5.36938
G1 X51.680 Y77.230 E5.38429
G1 X51.866 Y76.658 E5.39875
G1 X52.155 Y76.120 E5.41345
G1 X52.536 Y75.642 E5.42814
G1 X52.996 Y75.240 E5.44284
G1 X53.521 Y74.926 E5.45753
G1 X54.093 Y74.712 E5.47223
G1 X54.694 Y74.603 E5.48692
G1 X55.306 Y74.603 E5.50162
G1 X55.907 Y74.712 E5.51631
G1 X56.479 Y74.926 E5.53101
G1 X57.004 Y75.240 E5.54572
G1 X57.470 Y75.649 E5.56062
G1 X57.845 Y76.120 E5.57509
G1 X58.134 Y76.658 E5.58978
G1 X58.323 Y77.239 E5.60448
G1 X58.405 Y77.845 E5.61917
G1 X58.378 Y78.455 E5.63387
G1 X58.242 Y79.051 E5.64856
G1 X58.002 Y79.613 E5.66326
G1 X57.665 Y80.123 E5.67795
G1 X57.243 Y80.565 E5.69265
G1 X56.748 Y80.924 E5.70734
G1 X56.198 Y81.189 E5.72204
G1 X55.609 Y81.351 E5.73673
G1 X55.000 Y81.406 E5.75142
G1 X54.451 Y81.357 E5.76468
G1 X54.437 Y81.097 F7800.000
G1 F1332
G1 X53.893 Y80.947 E5.77826
G1 X53.384 Y80.702 E5.79184
G1 X52.927 Y80.370 E5.80542
G1 X52.537 Y79.962 E5.81900
G1 X52.226 Y79.490 E5.83259
G1 X52.004 Y78.971 E5.84617
G1 X51.878 Y78.420 E5.85975
G1 X51.853 Y77.856 E5.87334
G1 X51.931 Y77.288 E5.88713
G1 X52.103 Y76.759 E5.90049
G1 X52.371 Y76.262 E5.91407
G1 X52.723 Y75.820 E5.92766
G1 X53.148 Y75.449 E5.94124
G1 X53.633 Y75.159 E5.95482
G1 X54.162 Y74.960 E5.96840
G1 X54.718 Y74.860 E5.98198
G1 X55.282 Y74.860 E5.99557
G1 X55.838 Y74.960 E6.00915
G1 X56.367 Y75.159 E6.02273
G1 X56.852 Y75.449 E6.03632
G1 X57.283 Y75.827 E6.05011
G1 X57.629 Y76.262 E6.06347
G1 X57.897 Y76.759 E6.07705
G1 X58.072 Y77.296 E6.09064
G1 X58.147 Y77.856 E6.10422
G1 X58.122 Y78.420 E6.11780
G1 X57.996 Y78.971 E6.13138
G1 X57.774 Y79.490 E6.14497
G1 X57.463 Y79.962 E6.15855
G1 X57.073 Y80.370 E6.17213
G1 X56.616 Y80.702 E6.18571
