; generated by Slic3r 1.3.0 on 2020-03-09 at 11:46:36

; external perimeters extrusion width = 0.36mm (2.03mm^3/s)
; perimeters extrusion width = 0.36mm (2.54mm^3/s)
; infill extrusion width = 0.44mm (2.78mm^3/s)
; solid infill extrusion width = 0.36mm (2.22mm^3/s)
; top infill extrusion width = 0.30mm (1.29mm^3/s)

M107
M190 S60 ; set bed temperature and wait for it to be reached
M104 S205 ; set temperature
G28 ; home all axes
G1 Z5 F5000 ; lift nozzle


; Filament gcode

M109 S205 ; set temperature and wait for it to be reached
G21 ; set units to millimeters
G90 ; use absolute coordinates
M82 ; use absolute distances for extrusion
G92 E0
G1 Z0.200 F7200.000
G1 E-4.00000 F3000.00000
G92 E0
G1 Z0.400 F7200.000
G1 X50.177 Y46.419 F7200.000
G1 Z0.200 F7200.000
G1 E4.01000 F3000.00000
G1 F1980
G1 X51.951 Y44.798 E4.07336
G1 X54.157 Y43.844 E4.13671
G1 X55.900 Y43.632 E4.18302
G1 X94.100 Y43.632 E5.19017
G1 X96.470 Y44.029 E5.25353
G1 X98.581 Y45.177 E5.31689
G1 X100.202 Y46.951 E5.38024
G1 X101.156 Y49.157 E5.44360
G1 X101.368 Y50.900 E5.48990
G1 X101.368 Y99.100 E6.76071
G1 X100.971 Y101.470 E6.82407
G1 X99.823 Y103.581 E6.88742
G1 X98.049 Y105.202 E6.95078
G1 X95.843 Y106.156 E7.01414
G1 X94.100 Y106.368 E7.06044
G1 X55.900 Y106.368 E8.06759
G1 X53.530 Y105.971 E8.13095
G1 X51.419 Y104.823 E8.19431
G1 X49.798 Y103.049 E8.25767
G1 X48.844 Y100.843 E8.32102
G1 X48.632 Y99.100 E8.36733
G1 X48.632 Y50.900 E9.63813
G1 X49.029 Y48.530 E9.70149
G1 X50.149 Y46.472 E9.76326
G1 X50.492 Y46.533 F7200.000
G1 F1980
G1 X52.256 Y44.981 E9.82521
G1 X54.436 Y44.105 E9.88716
G1 X55.900 Y43.949 E9.92598
G1 X94.100 Y43.949 E10.93313
G1 X96.416 Y44.346 E10.99508
G1 X98.467 Y45.492 E11.05703
G1 X100.019 Y47.256 E11.11898
G1 X100.895 Y49.436 E11.18093
G1 X101.051 Y50.900 E11.21975
G1 X101.051 Y99.100 E12.49055
G1 X100.654 Y101.416 E12.55250
G1 X99.508 Y103.467 E12.61445
G1 X97.744 Y105.019 E12.67640
G1 X95.564 Y105.895 E12.73835
G1 X94.100 Y106.051 E12.77717
G1 X55.900 Y106.051 E13.78432
G1 X53.584 Y105.654 E13.84627
G1 X51.533 Y104.508 E13.90822
G1 X49.981 Y102.744 E13.97017
G1 X49.105 Y100.564 E14.03212
G1 X48.949 Y99.100 E14.07093
G1 X48.949 Y50.900 E15.34174
G1 X49.346 Y48.584 E15.40369
G1 X50.463 Y46.585 E15.46406
G1 X50.806 Y46.650 F7200.000
G1 F1980
G1 X52.559 Y45.168 E15.52457
G1 X54.712 Y44.373 E15.58508
G1 X55.900 Y44.266 E15.61652
G1 X94.100 Y44.266 E16.62368
G1 X96.360 Y44.663 E16.68419
G1 X98.350 Y45.806 E16.74470
G1 X99.832 Y47.559 E16.80521
G1 X100.627 Y49.712 E16.86572
G1 X100.734 Y50.900 E16.89716
G1 X100.734 Y99.100 E18.16797
G1 X100.337 Y101.360 E18.22848
G1 X99.194 Y103.350 E18.28899
G1 X97.441 Y104.832 E18.34950
G1 X95.288 Y105.627 E18.41001
G1 X94.100 Y105.734 E18.44145
G1 X55.900 Y105.734 E19.44861
G1 X53.640 Y105.337 E19.50912
G1 X51.650 Y104.194 E19.56963
G1 X50.168 Y102.441 E19.63014
G1 X49.373 Y100.288 E19.69065
G1 X49.266 Y99.100 E19.72209
G1 X49.266 Y50.900 E20.99290
G1 X49.663 Y48.640 E21.05341
G1 X50.776 Y46.702 E21.11233
G1 X51.120 Y46.770 F7200.000
G1 F1980
G1 X52.862 Y45.362 E21.17137
G1 X55.900 Y44.583 E21.25407
G1 X94.100 Y44.583 E22.26122
G1 X96.304 Y44.980 E22.32026
G1 X98.230 Y46.120 E22.37929
G1 X99.638 Y47.862 E22.43833
G1 X100.417 Y50.900 E22.52103
G1 X100.417 Y99.100 E23.79183
G1 X100.020 Y101.304 E23.85087
G1 X98.880 Y103.230 E23.90990
G1 X97.138 Y104.638 E23.96894
G1 X94.100 Y105.417 E24.05164
G1 X55.900 Y105.417 E25.05879
G1 X53.696 Y105.020 E25.11783
G1 X51.770 Y103.880 E25.17686
G1 X50.362 Y102.138 E25.23590
G1 X49.583 Y99.100 E25.31859
G1 X49.583 Y50.900 E26.58940
G1 X49.980 Y48.696 E26.64844
G1 X51.090 Y46.821 E26.70589
G1 E22.70589 F3000.00000
G92 E0
G1 Z0.400 F7200.000
G1 X85.131 Y91.531 F7200.000
G1 Z0.200 F7200.000
G1 E4.01000 F3000.00000
G1 F1260
G1 X78.869 Y91.531 E4.17511
G1 X78.869 Y86.369 E4.31122
G1 X85.131 Y86.369 E4.47633
G1 X85.131 Y91.471 E4.61086
G1 X84.814 Y91.214 F7200.000
G1 F1260
G1 X79.186 Y91.214 E4.75925
G1 X79.186 Y86.686 E4.87864
G1 X84.814 Y86.686 E5.02704
G1 X84.814 Y91.154 E5.14484
G1 X84.497 Y90.897 F7200.000
G1 F1260
G1 X79.503 Y90.897 E5.27652
G1 X79.503 Y87.003 E5.37919
G1 X84.497 Y87.003 E5.51086
G1 X84.497 Y90.837 E5.61195
G1 X84.180 Y90.580 F7200.000
G1 F1260
G1 X79.820 Y90.580 E5.72690
G1 X79.820 Y87.320 E5.81285
G1 X84.180 Y87.320 E5.92780
G1 X84.180 Y90.520 E6.01217
G1 X84.302 Y90.961 F7200.000
G1 E2.01217 F3000.00000
G92 E0
G1 Z0.400 F7200.000
G1 X71.131 Y91.531 F7200.000
G1 Z0.200 F7200.000
G1 E4.01000 F3000.00000
G1 F1260
G1 X64.869 Y91.531 E4.17511
G1 X64.869 Y86.369 E4.31122
G1 X71.131 Y86.369 E4.47633
G1 X71.131 Y91.471 E4.61086
G1 X70.814 Y91.214 F7200.000
G1 F1260
G1 X65.186 Y91.214 E4.75925
G1 X65.186 Y86.686 E4.87864
G1 X70.814 Y86.686 E5.02704
G1 X70.814 Y91.154 E5.14484
G1 X70.497 Y90.897 F7200.000
G1 F1260
G1 X65.503 Y90.897 E5.27652
G1 X65.503 Y87.003 E5.37919
G1 X70.497 Y87.003 E5.51086
G1 X70.497 Y90.837 E5.61195
G1 X70.180 Y90.580 F7200.000
G1 F1260
G1 X65.820 Y90.580 E5.72690
G1 X65.820 Y87.320 E5.81285
G1 X70.180 Y87.320 E5.92780
G1 X70.180 Y90.520 E6.01217
G1 X70.302 Y90.961 F7200.000
G1 E2.01217 F3000.00000
G92 E0
G1 Z0.400 F7200.000
G1 X70.897 Y82.106 F7200.000
G1 Z0.200 F7200.000
G1 E4.01000 F3000.00000
G1 F1440
G1 X66.794 Y75.000 E4.22634
G1 X70.897 Y67.894 E4.44268
G1 X79.103 Y67.894 E4.65903
G1 X83.206 Y75.000 E4.87537
G1 X79.103 Y82.106 E5.09171
G1 X70.957 Y82.106 E5.30647
G1 X71.080 Y81.789 F7200.000
G1 F1440
G1 X67.161 Y75.000 E5.51316
G1 X71.080 Y68.211 E5.71985
G1 X78.920 Y68.211 E5.92654
G1 X82.839 Y75.000 E6.13323
G1 X78.920 Y81.789 E6.33992
G1 X71.140 Y81.789 E6.54502
G1 X71.263 Y81.472 F7200.000
G1 F1440
G1 X67.527 Y75.000 E6.74206
G1 X71.263 Y68.528 E6.93910
G1 X78.737 Y68.528 E7.13613
G1 X82.473 Y75.000 E7.33317
G1 X78.737 Y81.472 E7.53020
G1 X71.323 Y81.472 E7.72566
G1 X71.446 Y81.155 F7200.000
G1 F1152
G1 X67.893 Y75.000 E7.91304
G1 X71.446 Y68.845 E8.10042
G1 X78.554 Y68.845 E8.28781
G1 X82.107 Y75.000 E8.47519
G1 X78.554 Y81.155 E8.66257
G1 X71.506 Y81.155 E8.84837
G1 X71.100 Y81.355 F7200.000
G1 E4.84837 F3000.00000
G92 E0
G1 Z0.400 F7200.000
G1 X71.131 Y63.631 F7200.000
G1 Z0.200 F7200.000
G1 E4.01000 F3000.00000
G1 F1260
G1 X64.869 Y63.631 E4.17511
G1 X64.869 Y58.469 E4.31122
G1 X71.131 Y58.469 E4.47633
G1 X71.131 Y63.571 E4.61086
G1 X70.814 Y63.314 F7200.000
G1 F1260
G1 X65.186 Y63.314 E4.75925
G1 X65.186 Y58.786 E4.87864
G1 X70.814 Y58.786 E5.02704
G1 X70.814 Y63.254 E5.14484
G1 X70.497 Y62.997 F7200.000
G1 F1260
G1 X65.503 Y62.997 E5.27652
G1 X65.503 Y59.103 E5.37919
G1 X70.497 Y59.103 E5.51086
G1 X70.497 Y62.937 E5.61195
G1 X70.180 Y62.680 F7200.000
G1 F1260
G1 X65.820 Y62.680 E5.72690
G1 X65.820 Y59.420 E5.81285
G1 X70.180 Y59.420 E5.92780
G1 X70.180 Y62.620 E6.01217
G1 X70.302 Y63.061 F7200.000
G1 E2.01217 F3000.00000
G92 E0
G1 Z0.400 F7200.000
G1 X78.869 Y63.631 F7200.000
G1 Z0.200 F7200.000
G1 E4.01000 F3000.00000
G1 F1260
G1 X78.869 Y58.469 E4.14611
G1 X85.131 Y58.469 E4.31122
G1 X85.131 Y63.631 E4.44733
G1 X78.929 Y63.631 E4.61086
G1 X79.186 Y63.314 F7200.000
G1 F1260
G1 X79.186 Y58.786 E4.73025
G1 X84.814 Y58.786 E4.87864
G1 X84.814 Y63.314 E4.99803
G1 X79.246 Y63.314 E5.14484
G1 X79.503 Y62.997 F7200.000
G1 F1260
G1 X79.503 Y59.103 E5.24752
G1 X84.497 Y59.103 E5.37919
G1 X84.497 Y62.997 E5.48186
G1 X79.563 Y62.997 E5.61195
G1 X79.820 Y62.680 F7200.000
G1 F1260
G1 X79.820 Y59.420 E5.69790
G1 X84.180 Y59.420 E5.81285
G1 X84.180 Y62.680 E5.89880
G1 X79.880 Y62.680 E6.01217
G1 X79.429 Y62.765 F7200.000
G1 E2.01217 F3000.00000
G92 E0
G1 Z0.400 F7200.000
G1 X92.969 Y52.031 F7200.000
G1 Z0.200 F7200.000
G1 E4.01000 F3000.00000
G1 F1440
G1 X92.969 Y97.969 E5.22116
G1 X57.031 Y97.969 E6.16866
G1 X57.031 Y52.031 E7.37981
G1 X92.909 Y52.031 E8.32574
G1 X93.286 Y51.714 F7200.000
G1 F1440
G1 X93.286 Y98.286 E9.55361
G1 X56.714 Y98.286 E10.51783
G1 X56.714 Y51.714 E11.74571
G1 X93.226 Y51.714 E12.70835
G1 X93.603 Y51.397 F7200.000
G1 F1440
G1 X93.603 Y98.603 E13.95295
G1 X56.397 Y98.603 E14.93389
G1 X56.397 Y51.397 E16.17848
G1 X93.543 Y51.397 E17.15784
G1 X93.920 Y51.080 F7200.000
G1 F1152
G1 X93.920 Y98.920 E18.41916
G1 X56.080 Y98.920 E19.41682
G1 X56.080 Y51.080 E20.67814
G1 X93.860 Y51.080 E21.67422
G1 X93.832 Y51.470 F7200.000
G1 E17.67422 F3000.00000
G92 E0
G1 Z0.400 F7200.000
G1 X78.428 Y58.287 F7200.000
G1 Z0.200 F7200.000
G1 E4.01000 F3000.00000
G1 F1260
G1 X84.491 Y52.225 E4.23700
G1 X84.941 Y52.225 E4.24892
G1 X78.891 Y58.275 E4.47546
G1 X79.341 Y58.275 E4.48738
G1 X85.391 Y52.225 E4.71392
G1 X85.842 Y52.225 E4.72584
G1 X79.792 Y58.275 E4.95238
G1 X80.242 Y58.275 E4.96430
G1 X86.292 Y52.225 E5.19084
G1 X86.742 Y52.225 E5.20276
G1 X80.692 Y58.275 E5.42930
G1 X81.143 Y58.275 E5.44122
G1 X87.193 Y52.225 E5.66776
G1 X87.643 Y52.225 E5.67968
G1 X81.593 Y58.275 E5.90622
G1 X82.043 Y58.275 E5.91814
G1 X88.093 Y52.225 E6.14468
G1 X88.544 Y52.225 E6.15660
G1 X82.494 Y58.275 E6.38314
G1 X82.944 Y58.275 E6.39506
G1 X88.994 Y52.225 E6.62160
G1 X89.444 Y52.225 E6.63352
G1 X83.394 Y58.275 E6.86006
G1 X83.845 Y58.275 E6.87198
G1 X89.895 Y52.225 E7.09852
G1 X90.345 Y52.225 E7.11044
G1 X84.295 Y58.275 E7.33698
G1 X84.745 Y58.275 E7.34890
G1 X90.795 Y52.225 E7.57544
G1 X91.246 Y52.225 E7.58736
G1 X85.195 Y58.275 E7.81390
G1 X85.325 Y58.275 E7.81733
G1 X85.325 Y58.596 E7.82582
G1 X91.696 Y52.225 E8.06437
G1 X92.146 Y52.225 E8.07629
G1 X85.325 Y59.046 E8.33170
G1 X85.325 Y59.496 E8.34363
G1 X92.596 Y52.225 E8.61590
G1 X92.775 Y52.225 E8.62063
G1 X92.775 Y52.497 E8.62782
G1 X85.325 Y59.947 E8.90678
G1 X85.325 Y60.397 E8.91870
G1 X92.775 Y52.947 E9.19766
G1 X92.775 Y53.397 E9.20958
G1 X85.325 Y60.847 E9.48854
G1 X85.325 Y61.298 E9.50046
G1 X92.775 Y53.848 E9.77942
G1 X92.775 Y54.298 E9.79134
G1 X85.325 Y61.748 E10.07030
G1 X85.325 Y62.198 E10.08223
G1 X92.775 Y54.748 E10.36118
G1 X92.775 Y55.199 E10.37311
G1 X85.325 Y62.649 E10.65207
G1 X85.325 Y63.099 E10.66399
G1 X92.775 Y55.649 E10.94295
G1 X92.775 Y56.099 E10.95487
G1 X85.325 Y63.549 E11.23383
G1 X85.325 Y64.000 E11.24575
G1 X92.775 Y56.550 E11.52471
G1 X92.775 Y57.000 E11.53663
G1 X80.229 Y69.546 E12.00642
G1 X80.393 Y69.832 E12.01515
G1 X92.775 Y57.450 E12.47877
G1 X92.775 Y57.901 E12.49069
G1 X80.558 Y70.117 E12.94814
G1 X80.723 Y70.403 E12.95686
G1 X92.775 Y58.351 E13.40814
G1 X92.775 Y58.801 E13.42006
G1 X80.888 Y70.688 E13.86516
G1 X81.053 Y70.974 E13.87389
G1 X92.775 Y59.251 E14.31282
G1 X92.775 Y59.702 E14.32475
G1 X81.217 Y71.259 E14.75751
G1 X81.382 Y71.545 E14.76623
G1 X92.775 Y60.152 E15.19282
G1 X92.775 Y60.602 E15.20474
G1 X81.547 Y71.830 E15.62516
G1 X81.712 Y72.116 E15.63389
G1 X92.775 Y61.053 E16.04813
G1 X92.775 Y61.503 E16.06005
G1 X81.877 Y72.401 E16.46813
G1 X82.042 Y72.687 E16.47685
G1 X92.775 Y61.953 E16.87875
G1 X92.775 Y62.404 E16.89068
G1 X82.206 Y72.972 E17.28641
G1 X82.371 Y73.258 E17.29513
G1 X92.775 Y62.854 E17.68469
G1 X92.775 Y63.304 E17.69661
G1 X82.536 Y73.543 E18.08000
G1 X82.701 Y73.829 E18.08873
G1 X92.775 Y63.755 E18.46594
G1 X92.775 Y64.205 E18.47786
G1 X82.866 Y74.114 E18.84890
G1 X83.031 Y74.400 E18.85763
G1 X92.775 Y64.655 E19.22250
G1 X92.775 Y65.106 E19.23443
G1 X83.195 Y74.685 E19.59312
G1 X83.360 Y74.971 E19.60185
G1 X92.775 Y65.556 E19.95438
G1 X92.775 Y66.006 E19.96630
G1 X83.162 Y75.619 E20.32624
G1 X82.547 Y76.685 E20.35882
G1 X92.775 Y66.457 E20.74179
G1 X92.775 Y66.907 E20.75372
G1 X81.932 Y77.750 E21.15973
G1 X81.317 Y78.815 E21.19230
G1 X92.775 Y67.357 E21.62134
G1 X92.775 Y67.807 E21.63327
G1 X80.702 Y79.881 E22.08534
G1 X80.086 Y80.946 E22.11792
G1 X92.775 Y68.258 E22.59302
G1 X92.775 Y68.708 E22.60495
G1 X79.471 Y82.012 E23.10309
G1 E19.10309 F3000.00000
G92 E0
G1 Z0.400 F7200.000
G1 X80.064 Y69.261 F7200.000
G1 Z0.200 F7200.000
G1 E4.01000 F3000.00000
G1 F1260
G1 X85.500 Y63.825 E4.21354
G1 X85.049 Y63.825 E4.22546
G1 X79.899 Y68.975 E4.41832
G1 X79.734 Y68.690 E4.42704
G1 X84.599 Y63.825 E4.60921
G1 X84.149 Y63.825 E4.62113
G1 X79.569 Y68.404 E4.79260
G1 X79.404 Y68.119 E4.80133
G1 X83.698 Y63.825 E4.96211
G1 X83.248 Y63.825 E4.97403
G1 X79.240 Y67.833 E5.12413
G1 X79.163 Y67.700 E5.12821
G1 X78.923 Y67.700 E5.13456
G1 X82.798 Y63.825 E5.27965
G1 X82.347 Y63.825 E5.29158
G1 X78.472 Y67.700 E5.43667
G1 X78.022 Y67.700 E5.44860
G1 X81.897 Y63.825 E5.59369
G1 X81.447 Y63.825 E5.60562
G1 X77.572 Y67.700 E5.75071
G1 X77.121 Y67.700 E5.76263
G1 X80.996 Y63.825 E5.90773
G1 X80.546 Y63.825 E5.91965
G1 X76.671 Y67.700 E6.06475
G1 X76.221 Y67.700 E6.07667
G1 X80.096 Y63.825 E6.22177
G1 X79.646 Y63.825 E6.23369
G1 X75.770 Y67.700 E6.37879
G1 X75.320 Y67.700 E6.39071
G1 X79.195 Y63.825 E6.53581
G1 X78.745 Y63.825 E6.54773
G1 X74.870 Y67.700 E6.69283
G1 X74.420 Y67.700 E6.70475
G1 X78.675 Y63.445 E6.86409
G1 X78.675 Y62.994 E6.87602
G1 X73.969 Y67.700 E7.05222
G1 X73.519 Y67.700 E7.06414
G1 X78.675 Y62.544 E7.25721
G1 X78.675 Y62.094 E7.26913
G1 X73.069 Y67.700 E7.47906
G1 X72.618 Y67.700 E7.49098
G1 X78.675 Y61.643 E7.71777
G1 X78.675 Y61.193 E7.72969
G1 X72.168 Y67.700 E7.97334
G1 X71.718 Y67.700 E7.98527
G1 X78.675 Y60.743 E8.24578
G1 X78.675 Y60.292 E8.25770
G1 X71.267 Y67.700 E8.53508
G1 X70.817 Y67.700 E8.54700
G1 X78.675 Y59.842 E8.84123
G1 X78.675 Y59.392 E8.85316
G1 E4.85316 F3000.00000
G92 E0
G1 Z0.400 F7200.000
G1 X71.325 Y64.040 F7200.000
G1 Z0.200 F7200.000
G1 E4.01000 F3000.00000
G1 F1260
G1 X83.140 Y52.225 E4.45239
G1 X82.690 Y52.225 E4.46432
G1 X71.325 Y63.590 E4.88985
G1 X71.325 Y63.139 E4.90177
G1 X82.239 Y52.225 E5.31044
G1 X81.789 Y52.225 E5.32236
G1 X71.325 Y62.689 E5.71417
G1 X71.325 Y62.239 E5.72610
G1 X81.339 Y52.225 E6.10104
G1 X80.888 Y52.225 E6.11297
G1 X71.325 Y61.788 E6.47105
G1 X71.325 Y61.338 E6.48298
G1 X80.438 Y52.225 E6.82420
G1 X79.988 Y52.225 E6.83612
G1 X71.325 Y60.888 E7.16049
G1 X71.325 Y60.437 E7.17241
G1 X79.537 Y52.225 E7.47991
G1 X79.087 Y52.225 E7.49183
G1 X71.325 Y59.987 E7.78247
G1 X71.325 Y59.537 E7.79440
G1 X78.637 Y52.225 E8.06817
G1 X78.186 Y52.225 E8.08010
G1 X71.325 Y59.086 E8.33701
G1 X71.325 Y58.636 E8.34894
G1 X77.736 Y52.225 E8.58899
G1 X77.286 Y52.225 E8.60091
G1 X71.236 Y58.275 E8.82745
G1 X70.785 Y58.275 E8.83937
G1 X76.835 Y52.225 E9.06591
G1 X76.385 Y52.225 E9.07783
G1 X70.335 Y58.275 E9.30437
G1 X69.885 Y58.275 E9.31629
G1 X75.935 Y52.225 E9.54283
G1 X75.484 Y52.225 E9.55475
G1 X69.434 Y58.275 E9.78129
G1 X68.984 Y58.275 E9.79321
G1 X75.034 Y52.225 E10.01975
G1 X74.584 Y52.225 E10.03167
G1 X68.534 Y58.275 E10.25821
G1 X68.083 Y58.275 E10.27013
G1 X74.134 Y52.225 E10.49667
G1 X73.683 Y52.225 E10.50859
G1 X67.633 Y58.275 E10.73513
G1 X67.183 Y58.275 E10.74705
G1 X73.233 Y52.225 E10.97359
G1 X72.783 Y52.225 E10.98551
G1 X66.733 Y58.275 E11.21205
G1 X66.282 Y58.275 E11.22397
G1 X72.332 Y52.225 E11.45051
G1 X71.882 Y52.225 E11.46243
G1 X65.832 Y58.275 E11.68897
G1 X65.382 Y58.275 E11.70089
G1 X71.432 Y52.225 E11.92743
G1 X70.981 Y52.225 E11.93935
G1 X64.931 Y58.275 E12.16589
G1 X64.481 Y58.275 E12.17781
G1 X70.531 Y52.225 E12.40435
G1 X70.081 Y52.225 E12.41627
G1 X57.225 Y65.081 E12.89764
G1 X57.225 Y64.630 E12.90956
G1 X69.630 Y52.225 E13.37407
G1 X69.180 Y52.225 E13.38599
G1 X57.225 Y64.180 E13.83363
G1 X57.225 Y63.730 E13.84556
G1 X68.730 Y52.225 E14.27634
G1 X68.279 Y52.225 E14.28826
G1 X57.225 Y63.279 E14.70218
G1 X57.225 Y62.829 E14.71411
G1 X67.829 Y52.225 E15.11117
G1 X67.379 Y52.225 E15.12309
G1 X57.225 Y62.379 E15.50329
G1 X57.225 Y61.928 E15.51521
G1 X66.928 Y52.225 E15.87855
G1 X66.478 Y52.225 E15.89047
G1 X57.225 Y61.478 E16.23694
G1 X57.225 Y61.028 E16.24887
G1 X66.028 Y52.225 E16.57848
G1 X65.578 Y52.225 E16.59040
G1 X57.225 Y60.578 E16.90315
G1 X57.225 Y60.127 E16.91508
G1 X65.127 Y52.225 E17.21097
G1 X64.677 Y52.225 E17.22289
G1 X57.225 Y59.677 E17.50192
G1 X57.225 Y59.227 E17.51384
G1 X64.227 Y52.225 E17.77601
G1 X63.776 Y52.225 E17.78793
G1 X57.225 Y58.776 E18.03324
G1 X57.225 Y58.326 E18.04516
G1 X63.326 Y52.225 E18.27360
G1 X62.876 Y52.225 E18.28553
G1 X57.225 Y57.876 E18.49711
G1 X57.225 Y57.425 E18.50903
G1 X62.425 Y52.225 E18.70375
G1 X61.975 Y52.225 E18.71568
G1 X57.225 Y56.975 E18.89353
G1 X57.225 Y56.525 E18.90546
