; generated by Slic3r 1.3.0 on 2020-04-03 at 18:03:20

; external perimeters extrusion width = 0.36mm (2.03mm^3/s)
; perimeters extrusion width = 0.36mm (2.54mm^3/s)
; infill extrusion width = 0.44mm (2.78mm^3/s)
; solid infill extrusion width = 0.36mm (2.22mm^3/s)
; top infill extrusion width = 0.30mm (1.29mm^3/s)

M107
M190 S60 ; set bed temperature and wait for it to be reached
M104 S200 ; set temperature
G28 ; home all axes
G1 Z5 F5000 ; lift nozzle


; Filament gcode

M109 S200 ; set temperature and wait for it to be reached
G21 ; set units to millimeters
G90 ; use absolute coordinates
M82 ; use absolute distances for extrusion
G92 E0
G1 Z0.200 F7200.000
G1 E-4.00000 F3000.00000
G92 E0
G1 Z0.400 F7200.000
G1 X57.438 Y47.191 F7200.000
G1 Z0.200 F7200.000
G1 E4.02000 F3000.00000
G1 F1980
G1 X57.691 Y46.938 E4.02992
G1 X58.264 Y46.482 E4.05018
G1 X58.567 Y46.291 E4.06010
G1 X59.226 Y45.974 E4.08036
G1 X59.565 Y45.855 E4.09028
G1 X60.278 Y45.692 E4.11054
G1 X61.000 Y45.632 E4.13060
G1 X99.500 Y45.632 E5.19641
G1 X100.222 Y45.692 E5.21647
G1 X100.936 Y45.855 E5.23673
G1 X101.274 Y45.974 E5.24665
G1 X101.933 Y46.291 E5.26691
G1 X102.236 Y46.482 E5.27683
G1 X102.809 Y46.938 E5.29709
G1 X103.062 Y47.191 E5.30701
G1 X103.518 Y47.764 E5.32727
G1 X103.709 Y48.067 E5.33719
G1 X104.026 Y48.726 E5.35745
G1 X104.145 Y49.064 E5.36737
G1 X104.308 Y49.778 E5.38763
G1 X104.368 Y50.500 E5.40768
G1 X104.368 Y68.000 E5.89215
G1 X104.308 Y68.722 E5.91220
G1 X104.145 Y69.436 E5.93246
G1 X104.026 Y69.774 E5.94238
G1 X103.709 Y70.433 E5.96264
G1 X103.518 Y70.736 E5.97256
G1 X103.062 Y71.309 E5.99282
G1 X71.309 Y103.062 E7.23598
G1 X70.736 Y103.518 E7.25624
G1 X70.433 Y103.709 E7.26616
G1 X69.774 Y104.026 E7.28642
G1 X69.435 Y104.145 E7.29634
G1 X68.722 Y104.308 E7.31660
G1 X68.000 Y104.368 E7.33666
G1 X50.500 Y104.368 E7.82112
G1 X49.778 Y104.308 E7.84118
G1 X49.064 Y104.145 E7.86144
G1 X48.726 Y104.026 E7.87136
G1 X48.067 Y103.709 E7.89162
G1 X47.764 Y103.518 E7.90154
G1 X47.191 Y103.062 E7.92180
G1 X46.938 Y102.809 E7.93171
G1 X46.482 Y102.236 E7.95197
G1 X46.291 Y101.933 E7.96189
G1 X45.944 Y101.189 E7.98462
G1 X45.855 Y100.935 E7.99206
G1 X45.692 Y100.222 E8.01232
G1 X45.632 Y99.500 E8.03238
G1 X45.632 Y61.000 E9.09819
G1 X45.692 Y60.278 E9.11825
G1 X45.855 Y59.565 E9.13851
G1 X45.974 Y59.226 E9.14843
G1 X46.291 Y58.567 E9.16869
G1 X46.482 Y58.264 E9.17861
G1 X46.938 Y57.691 E9.19887
G1 X57.396 Y47.234 E9.60829
G1 X57.662 Y47.416 F7200.000
G1 F1980
G1 X57.916 Y47.162 E9.61821
G1 X58.432 Y46.750 E9.63650
G1 X58.736 Y46.560 E9.64642
G1 X59.331 Y46.273 E9.66472
G1 X59.669 Y46.154 E9.67464
G1 X60.313 Y46.007 E9.69293
G1 X61.000 Y45.949 E9.71200
G1 X99.500 Y45.949 E10.77782
G1 X100.187 Y46.007 E10.79689
G1 X100.831 Y46.154 E10.81519
G1 X101.169 Y46.273 E10.82511
G1 X101.764 Y46.560 E10.84340
G1 X102.068 Y46.750 E10.85332
G1 X102.584 Y47.162 E10.87162
G1 X102.838 Y47.416 E10.88154
G1 X103.250 Y47.932 E10.89983
G1 X103.440 Y48.236 E10.90975
G1 X103.727 Y48.831 E10.92804
G1 X103.846 Y49.169 E10.93796
G1 X103.993 Y49.814 E10.95626
G1 X104.051 Y50.500 E10.97533
G1 X104.051 Y68.000 E11.45979
G1 X103.993 Y68.686 E11.47886
G1 X103.846 Y69.331 E11.49716
G1 X103.727 Y69.669 E11.50708
G1 X103.440 Y70.264 E11.52538
G1 X103.250 Y70.568 E11.53529
G1 X102.838 Y71.084 E11.55359
G1 X71.084 Y102.838 E12.79675
G1 X70.568 Y103.250 E12.81504
G1 X70.264 Y103.440 E12.82496
G1 X69.669 Y103.727 E12.84325
G1 X69.331 Y103.846 E12.85317
G1 X68.686 Y103.993 E12.87147
G1 X68.000 Y104.051 E12.89054
G1 X50.500 Y104.051 E13.37500
G1 X49.814 Y103.993 E13.39408
G1 X49.169 Y103.846 E13.41237
G1 X48.831 Y103.727 E13.42229
G1 X48.236 Y103.440 E13.44059
G1 X47.932 Y103.250 E13.45051
G1 X47.416 Y102.838 E13.46880
G1 X47.162 Y102.584 E13.47872
G1 X46.750 Y102.068 E13.49701
G1 X46.560 Y101.764 E13.50693
G1 X46.243 Y101.084 E13.52769
G1 X46.154 Y100.831 E13.53513
G1 X46.007 Y100.187 E13.55343
G1 X45.949 Y99.500 E13.57250
G1 X45.949 Y61.000 E14.63832
G1 X46.007 Y60.313 E14.65739
G1 X46.154 Y59.669 E14.67569
G1 X46.273 Y59.331 E14.68560
G1 X46.560 Y58.736 E14.70390
G1 X46.750 Y58.432 E14.71382
G1 X47.162 Y57.916 E14.73211
G1 X57.620 Y47.458 E15.14153
G1 X57.886 Y47.640 F7200.000
G1 F1980
G1 X58.140 Y47.386 E15.15145
G1 X58.601 Y47.019 E15.16778
G1 X58.904 Y46.828 E15.17770
G1 X59.436 Y46.572 E15.19403
G1 X59.774 Y46.454 E15.20395
G1 X60.349 Y46.323 E15.22028
G1 X61.000 Y46.266 E15.23837
G1 X99.500 Y46.266 E16.30418
G1 X100.151 Y46.323 E16.32227
G1 X100.726 Y46.454 E16.33860
G1 X101.064 Y46.572 E16.34852
G1 X101.596 Y46.828 E16.36485
G1 X101.899 Y47.019 E16.37477
G1 X102.360 Y47.386 E16.39110
G1 X102.614 Y47.640 E16.40102
G1 X102.981 Y48.101 E16.41734
G1 X103.172 Y48.404 E16.42726
G1 X103.428 Y48.936 E16.44359
G1 X103.546 Y49.274 E16.45351
G1 X103.677 Y49.849 E16.46984
G1 X103.734 Y50.500 E16.48793
G1 X103.734 Y68.000 E16.97239
G1 X103.677 Y68.651 E16.99048
G1 X103.546 Y69.226 E17.00681
G1 X103.428 Y69.564 E17.01673
G1 X103.172 Y70.096 E17.03306
G1 X102.981 Y70.399 E17.04298
G1 X102.614 Y70.860 E17.05931
G1 X70.860 Y102.614 E18.30247
G1 X70.399 Y102.981 E18.31879
G1 X70.096 Y103.172 E18.32871
G1 X69.564 Y103.428 E18.34504
G1 X69.226 Y103.546 E18.35496
G1 X68.651 Y103.677 E18.37129
G1 X68.000 Y103.734 E18.38938
G1 X50.500 Y103.734 E18.87384
G1 X49.849 Y103.677 E18.89193
G1 X49.274 Y103.546 E18.90826
G1 X48.936 Y103.428 E18.91818
G1 X48.404 Y103.172 E18.93451
G1 X48.101 Y102.981 E18.94443
G1 X47.640 Y102.614 E18.96076
G1 X47.386 Y102.360 E18.97068
G1 X47.019 Y101.899 E18.98701
G1 X46.828 Y101.596 E18.99693
G1 X46.543 Y100.980 E19.01572
G1 X46.454 Y100.726 E19.02316
G1 X46.323 Y100.151 E19.03949
G1 X46.266 Y99.500 E19.05758
G1 X46.266 Y61.000 E20.12339
G1 X46.323 Y60.349 E20.14148
G1 X46.454 Y59.774 E20.15781
G1 X46.572 Y59.436 E20.16773
G1 X46.828 Y58.904 E20.18406
G1 X47.019 Y58.601 E20.19398
G1 X47.386 Y58.140 E20.21031
G1 X57.844 Y47.682 E20.61973
G1 X58.111 Y47.864 F7200.000
G1 F1980
G1 X58.364 Y47.611 E20.62965
G1 X58.770 Y47.287 E20.64401
G1 X59.073 Y47.097 E20.65393
G1 X59.541 Y46.871 E20.66829
G1 X59.879 Y46.753 E20.67821
G1 X60.385 Y46.638 E20.69258
G1 X61.000 Y46.583 E20.70968
G1 X99.500 Y46.583 E21.77550
G1 X100.115 Y46.638 E21.79260
G1 X100.621 Y46.753 E21.80697
G1 X100.960 Y46.871 E21.81689
G1 X101.427 Y47.097 E21.83125
G1 X101.730 Y47.287 E21.84117
G1 X102.136 Y47.611 E21.85553
G1 X102.389 Y47.864 E21.86545
G1 X102.713 Y48.270 E21.87981
G1 X102.903 Y48.573 E21.88973
G1 X103.129 Y49.040 E21.90410
G1 X103.247 Y49.379 E21.91402
G1 X103.362 Y49.885 E21.92838
G1 X103.417 Y50.500 E21.94549
G1 X103.417 Y68.000 E22.42995
G1 X103.362 Y68.615 E22.44705
G1 X103.247 Y69.121 E22.46142
G1 X103.129 Y69.460 E22.47134
G1 X102.903 Y69.927 E22.48570
G1 X102.713 Y70.230 E22.49562
G1 X102.389 Y70.636 E22.50998
G1 X70.636 Y102.389 E23.75314
G1 X70.230 Y102.713 E23.76750
G1 X69.927 Y102.903 E23.77742
G1 X69.460 Y103.129 E23.79179
G1 X69.121 Y103.247 E23.80170
G1 X68.615 Y103.362 E23.81607
G1 X68.000 Y103.417 E23.83317
G1 X50.500 Y103.417 E24.31764
G1 X49.885 Y103.362 E24.33474
G1 X49.379 Y103.247 E24.34911
G1 X49.040 Y103.129 E24.35902
G1 X48.573 Y102.903 E24.37339
G1 X48.270 Y102.713 E24.38331
G1 X47.864 Y102.389 E24.39767
G1 X47.611 Y102.136 E24.40759
G1 X47.287 Y101.730 E24.42195
G1 X47.097 Y101.427 E24.43187
G1 X46.842 Y100.875 E24.44870
G1 X46.753 Y100.621 E24.45614
G1 X46.638 Y100.115 E24.47050
G1 X46.583 Y99.500 E24.48761
G1 X46.583 Y61.000 E25.55343
G1 X46.638 Y60.385 E25.57053
G1 X46.753 Y59.879 E25.58490
G1 X46.871 Y59.541 E25.59481
G1 X47.097 Y59.073 E25.60918
G1 X47.287 Y58.770 E25.61910
G1 X47.611 Y58.364 E25.63346
G1 X58.068 Y47.906 E26.04288
G1 E22.04288 F3000.00000
G92 E0
G1 Z0.400 F7200.000
G1 X68.240 Y96.000 F7200.000
G1 Z0.200 F7200.000
G1 E4.02000 F3000.00000
G1 F1260
G1 X68.145 Y96.775 E4.04162
G1 X67.868 Y97.505 E4.06324
G1 X67.425 Y98.148 E4.08486
G1 X66.840 Y98.666 E4.10648
G1 X66.149 Y99.029 E4.12810
G1 X65.390 Y99.216 E4.14972
G1 X64.610 Y99.216 E4.17134
G1 X63.851 Y99.029 E4.19296
G1 X63.160 Y98.666 E4.21458
G1 X62.996 Y98.521 E4.22065
G1 X62.575 Y98.148 E4.23620
G1 X62.132 Y97.505 E4.25782
G1 X61.855 Y96.775 E4.27944
G1 X61.760 Y96.000 E4.30106
G1 X61.855 Y95.225 E4.32268
G1 X62.132 Y94.495 E4.34430
G1 X62.575 Y93.852 E4.36592
G1 X63.160 Y93.334 E4.38754
G1 X63.851 Y92.971 E4.40916
G1 X64.610 Y92.784 E4.43078
G1 X65.390 Y92.784 E4.45240
G1 X66.149 Y92.971 E4.47402
G1 X66.840 Y93.334 E4.49564
G1 X67.425 Y93.852 E4.51726
G1 X67.868 Y94.495 E4.53888
G1 X68.145 Y95.225 E4.56050
G1 X68.232 Y95.940 E4.58046
G1 X67.920 Y96.000 F7200.000
G1 F1260
G1 X67.835 Y96.699 E4.59995
G1 X67.586 Y97.357 E4.61943
G1 X67.186 Y97.936 E4.63892
G1 X66.659 Y98.403 E4.65841
G1 X66.035 Y98.730 E4.67790
G1 X65.352 Y98.899 E4.69739
G1 X64.648 Y98.899 E4.71688
G1 X63.965 Y98.730 E4.73636
G1 X63.341 Y98.403 E4.75585
G1 X63.206 Y98.283 E4.76086
G1 X62.814 Y97.936 E4.77534
G1 X62.414 Y97.357 E4.79483
G1 X62.165 Y96.699 E4.81432
G1 X62.080 Y96.000 E4.83381
G1 X62.165 Y95.301 E4.85329
G1 X62.414 Y94.643 E4.87278
G1 X62.814 Y94.064 E4.89227
G1 X63.341 Y93.597 E4.91176
G1 X63.965 Y93.270 E4.93125
G1 X64.648 Y93.101 E4.95074
G1 X65.352 Y93.101 E4.97022
G1 X66.035 Y93.270 E4.98971
G1 X66.659 Y93.597 E5.00920
G1 X67.186 Y94.064 E5.02869
G1 X67.586 Y94.643 E5.04818
G1 X67.835 Y95.301 E5.06767
G1 X67.913 Y95.940 E5.08549
G1 X67.601 Y96.000 F7200.000
G1 F1260
G1 X67.525 Y96.622 E5.10285
G1 X67.303 Y97.209 E5.12021
G1 X66.947 Y97.725 E5.13756
G1 X66.477 Y98.140 E5.15492
G1 X65.922 Y98.432 E5.17228
G1 X65.313 Y98.582 E5.18963
G1 X64.687 Y98.582 E5.20699
G1 X64.078 Y98.432 E5.22435
G1 X63.523 Y98.140 E5.24170
G1 X63.416 Y98.046 E5.24564
G1 X63.053 Y97.725 E5.25906
G1 X62.697 Y97.209 E5.27642
G1 X62.475 Y96.622 E5.29377
G1 X62.399 Y96.000 E5.31113
G1 X62.475 Y95.378 E5.32849
G1 X62.697 Y94.791 E5.34584
G1 X63.053 Y94.275 E5.36320
G1 X63.523 Y93.860 E5.38056
G1 X64.078 Y93.568 E5.39791
G1 X64.687 Y93.418 E5.41527
G1 X65.313 Y93.418 E5.43263
G1 X65.922 Y93.568 E5.44998
G1 X66.477 Y93.860 E5.46734
G1 X66.947 Y94.275 E5.48470
G1 X67.303 Y94.791 E5.50205
G1 X67.525 Y95.378 E5.51941
G1 X67.593 Y95.940 E5.53511
G1 X67.281 Y96.000 F7200.000
G1 F1260
G1 X67.215 Y96.546 E5.55033
G1 X67.020 Y97.060 E5.56556
G1 X66.708 Y97.513 E5.58078
G1 X66.296 Y97.877 E5.59601
G1 X65.809 Y98.133 E5.61123
G1 X65.275 Y98.265 E5.62646
G1 X64.725 Y98.265 E5.64168
G1 X64.191 Y98.133 E5.65691
G1 X63.704 Y97.877 E5.67213
G1 X63.626 Y97.809 E5.67500
G1 X63.292 Y97.513 E5.68736
G1 X62.980 Y97.060 E5.70258
G1 X62.785 Y96.546 E5.71781
G1 X62.719 Y96.000 E5.73303
G1 X62.785 Y95.454 E5.74826
G1 X62.980 Y94.940 E5.76348
G1 X63.292 Y94.487 E5.77871
G1 X63.704 Y94.123 E5.79393
G1 X64.191 Y93.867 E5.80916
G1 X64.725 Y93.735 E5.82438
G1 X65.275 Y93.735 E5.83961
G1 X65.809 Y93.867 E5.85483
G1 X66.296 Y94.123 E5.87006
G1 X66.708 Y94.487 E5.88528
G1 X67.020 Y94.940 E5.90051
G1 X67.215 Y95.454 E5.91573
G1 X67.274 Y95.940 E5.92929
G1 X67.628 Y96.200 F7200.000
G1 E1.92929 F3000.00000
G92 E0
G1 Z0.400 F7200.000
G1 X56.645 Y93.775 F7200.000
G1 Z0.200 F7200.000
G1 E4.02000 F3000.00000
G1 F1260
G1 X56.368 Y94.505 E4.04162
G1 X55.925 Y95.148 E4.06324
G1 X55.340 Y95.666 E4.08486
G1 X54.649 Y96.029 E4.10648
G1 X53.890 Y96.216 E4.12810
G1 X53.110 Y96.216 E4.14972
G1 X52.351 Y96.029 E4.17134
G1 X51.660 Y95.666 E4.19296
G1 X51.075 Y95.148 E4.21458
G1 X50.632 Y94.505 E4.23620
G1 X50.355 Y93.775 E4.25782
G1 X50.260 Y93.000 E4.27944
G1 X50.354 Y92.228 E4.30096
G1 X50.622 Y91.508 E4.32223
G1 X51.075 Y90.852 E4.34431
G1 X51.660 Y90.334 E4.36593
G1 X52.351 Y89.971 E4.38755
G1 X53.110 Y89.784 E4.40917
G1 X53.890 Y89.784 E4.43079
G1 X54.649 Y89.971 E4.45241
G1 X55.340 Y90.334 E4.47403
G1 X55.925 Y90.852 E4.49565
G1 X56.368 Y91.495 E4.51727
G1 X56.645 Y92.225 E4.53889
G1 X56.740 Y93.000 E4.56051
G1 X56.653 Y93.716 E4.58047
G1 X56.335 Y93.699 F7200.000
G1 F1260
G1 X56.086 Y94.357 E4.59996
G1 X55.686 Y94.936 E4.61945
G1 X55.159 Y95.403 E4.63893
G1 X54.535 Y95.730 E4.65842
G1 X53.852 Y95.899 E4.67791
G1 X53.148 Y95.899 E4.69740
G1 X52.465 Y95.730 E4.71689
G1 X51.841 Y95.403 E4.73638
G1 X51.314 Y94.936 E4.75586
G1 X50.914 Y94.357 E4.77535
G1 X50.665 Y93.699 E4.79484
G1 X50.580 Y93.000 E4.81433
G1 X50.664 Y92.304 E4.83374
G1 X50.905 Y91.656 E4.85288
G1 X51.314 Y91.064 E4.87280
G1 X51.841 Y90.597 E4.89229
G1 X52.465 Y90.270 E4.91178
G1 X53.148 Y90.101 E4.93127
G1 X53.852 Y90.101 E4.95076
G1 X54.535 Y90.270 E4.97025
G1 X55.159 Y90.597 E4.98973
G1 X55.686 Y91.064 E5.00922
G1 X56.086 Y91.643 E5.02871
G1 X56.335 Y92.301 E5.04820
G1 X56.420 Y93.000 E5.06769
G1 X56.343 Y93.639 E5.08552
G1 X56.025 Y93.622 F7200.000
G1 F1260
G1 X55.803 Y94.209 E5.10287
G1 X55.447 Y94.725 E5.12023
G1 X54.977 Y95.140 E5.13759
G1 X54.422 Y95.432 E5.15494
G1 X53.813 Y95.582 E5.17230
G1 X53.187 Y95.582 E5.18966
G1 X52.578 Y95.432 E5.20701
G1 X52.023 Y95.140 E5.22437
G1 X51.553 Y94.725 E5.24173
G1 X51.197 Y94.209 E5.25908
G1 X50.975 Y93.622 E5.27644
G1 X50.899 Y93.000 E5.29380
G1 X50.975 Y92.379 E5.31111
G1 X51.189 Y91.803 E5.32811
G1 X51.553 Y91.275 E5.34588
G1 X52.023 Y90.860 E5.36323
G1 X52.578 Y90.568 E5.38059
G1 X53.187 Y90.418 E5.39795
G1 X53.813 Y90.418 E5.41530
G1 X54.422 Y90.568 E5.43266
G1 X54.977 Y90.860 E5.45002
G1 X55.447 Y91.275 E5.46737
G1 X55.803 Y91.791 E5.48473
G1 X56.025 Y92.378 E5.50209
G1 X56.101 Y93.000 E5.51944
G1 X56.032 Y93.563 E5.53514
G1 X55.715 Y93.546 F7200.000
G1 F1260
G1 X55.520 Y94.060 E5.55036
G1 X55.208 Y94.513 E5.56559
G1 X54.796 Y94.877 E5.58081
G1 X54.309 Y95.133 E5.59604
G1 X53.775 Y95.265 E5.61126
G1 X53.225 Y95.265 E5.62649
G1 X52.691 Y95.133 E5.64171
G1 X52.204 Y94.877 E5.65694
G1 X51.792 Y94.513 E5.67216
G1 X51.480 Y94.060 E5.68739
G1 X51.285 Y93.546 E5.70261
G1 X51.219 Y93.000 E5.71784
G1 X51.285 Y92.455 E5.73305
G1 X51.472 Y91.951 E5.74792
G1 X51.792 Y91.487 E5.76352
G1 X52.204 Y91.123 E5.77875
G1 X52.691 Y90.867 E5.79397
G1 X53.225 Y90.735 E5.80920
G1 X53.775 Y90.735 E5.82442
G1 X54.309 Y90.867 E5.83965
G1 X54.796 Y91.123 E5.85487
G1 X55.208 Y91.487 E5.87010
G1 X55.520 Y91.940 E5.88532
G1 X55.715 Y92.454 E5.90055
G1 X55.781 Y93.000 E5.91577
G1 X55.722 Y93.486 E5.92934
G1 X56.004 Y93.823 F7200.000
G1 E1.92934 F3000.00000
G92 E0
G1 Z0.400 F7200.000
G1 X53.890 Y71.216 F7200.000
G1 Z0.200 F7200.000
G1 E4.02000 F3000.00000
G1 F1260
G1 X53.110 Y71.216 E4.04162
G1 X52.351 Y71.029 E4.06324
G1 X51.660 Y70.666 E4.08486
G1 X51.075 Y70.148 E4.10648
G1 X50.632 Y69.505 E4.12810
G1 X50.355 Y68.775 E4.14972
G1 X50.260 Y68.000 E4.17134
G1 X50.355 Y67.225 E4.19296
G1 X50.632 Y66.495 E4.21458
G1 X51.075 Y65.852 E4.23620
G1 X51.660 Y65.334 E4.25782
G1 X52.351 Y64.971 E4.27944
G1 X53.110 Y64.784 E4.30106
G1 X53.890 Y64.784 E4.32268
G1 X54.103 Y64.837 E4.32875
G1 X54.649 Y64.971 E4.34430
G1 X55.340 Y65.334 E4.36592
G1 X55.925 Y65.852 E4.38754
G1 X56.368 Y66.495 E4.40916
G1 X56.645 Y67.225 E4.43078
G1 X56.740 Y68.000 E4.45240
G1 X56.645 Y68.775 E4.47402
G1 X56.368 Y69.505 E4.49564
G1 X55.925 Y70.148 E4.51726
G1 X55.340 Y70.666 E4.53888
G1 X54.649 Y71.029 E4.56050
G1 X53.949 Y71.202 E4.58046
G1 X53.852 Y70.899 F7200.000
G1 F1260
G1 X53.148 Y70.899 E4.59995
G1 X52.465 Y70.730 E4.61943
G1 X51.841 Y70.403 E4.63892
G1 X51.314 Y69.936 E4.65841
G1 X50.914 Y69.357 E4.67790
G1 X50.665 Y68.699 E4.69739
G1 X50.580 Y68.000 E4.71688
G1 X50.665 Y67.301 E4.73636
G1 X50.914 Y66.643 E4.75585
G1 X51.314 Y66.064 E4.77534
G1 X51.841 Y65.597 E4.79483
G1 X52.465 Y65.270 E4.81432
G1 X53.148 Y65.101 E4.83381
G1 X53.852 Y65.101 E4.85329
G1 X54.028 Y65.144 E4.85830
G1 X54.535 Y65.270 E4.87278
G1 X55.159 Y65.597 E4.89227
G1 X55.686 Y66.064 E4.91176
G1 X56.086 Y66.643 E4.93125
G1 X56.335 Y67.301 E4.95074
G1 X56.420 Y68.000 E4.97022
G1 X56.335 Y68.699 E4.98971
G1 X56.086 Y69.357 E5.00920
G1 X55.686 Y69.936 E5.02869
G1 X55.159 Y70.403 E5.04818
G1 X54.535 Y70.730 E5.06767
G1 X53.910 Y70.884 E5.08549
G1 X53.813 Y70.582 F7200.000
G1 F1260
G1 X53.187 Y70.582 E5.10285
G1 X52.578 Y70.432 E5.12021
G1 X52.023 Y70.140 E5.13756
G1 X51.553 Y69.725 E5.15492
G1 X51.197 Y69.209 E5.17228
